; generated by Slic3r 1.2.9 on 2016-01-07 at 17:12:51

; external perimeters extrusion width = 0.35mm
; perimeters extrusion width = 0.39mm
; infill extrusion width = 0.39mm
; solid infill extrusion width = 0.39mm
; top infill extrusion width = 0.39mm

M190 S80 ; set bed temperature
M109 S230
G28 ; home all axes
G92 E0  ;reset extruder
G21 ; set units to millimeters
G90 ; use absolute coordinates
M83 ; use relative distances for extrusion
G1 E-2.00000 F1800.00000
G1 Z0.350 F7800.000
G1 X79.527 Y79.685 F7800.000
G1 E2.00000 F1800.00000
G1 X82.216 Y78.045 E0.29649 F1440.000
G1 X93.474 Y74.466 E1.11197
G1 X96.881 Y74.304 E0.32100
G1 X97.369 Y74.410 E0.04699
G1 X98.342 Y74.700 E0.09562 F1440.000
G1 X126.826 Y85.626 E2.87165
G1 X128.792 Y86.806 E0.21588
G1 X129.958 Y88.126 E0.16580
G1 X141.837 Y105.872 E2.01006
G1 X142.763 Y107.970 E0.21588
G1 X142.773 Y111.106 E0.29518
G1 X140.343 Y121.211 E0.97829
G1 X139.429 Y123.314 E0.21588
G1 X137.853 Y124.980 E0.21588
G1 X135.803 Y126.009 E0.21588
G1 X133.902 Y126.287 E0.18085
G1 X67.963 Y126.287 E6.20681
G1 X65.704 Y125.890 E0.21588
G1 X64.387 Y125.239 E0.13828
G1 X60.252 Y122.588 E0.46235
G1 X58.565 Y121.035 E0.21588
G1 X57.508 Y118.999 E0.21588
G1 X57.327 Y115.736 E0.30765
G1 X60.269 Y100.739 E1.43853
G1 X61.093 Y98.599 E0.21588
G1 X61.885 Y97.539 E0.12456
G1 X63.423 Y95.869 E0.21364
G1 X79.490 Y79.723 E2.14417
G1 E-2.00000 F1800.00000
G1 X127.487 Y112.397 F7800.000
G1 E2.00000 F1800.00000
G1 X131.195 Y115.093 E0.43157 F840.000
G1 X129.070 Y118.062 E0.34371
G1 X69.245 Y118.062 E5.63127
G1 X69.067 Y117.266 E0.07677
G1 X67.055 Y117.176 E0.18959
G1 X66.397 Y116.755 E0.07355
G1 X67.498 Y115.692 E0.14407
G1 X71.686 Y116.214 E0.39725
G1 X70.002 Y112.795 E0.35879
G1 X73.658 Y110.400 E0.41132
G1 X67.858 Y108.521 E0.57388
G1 X67.444 Y107.908 E0.06960
G1 X68.147 Y107.709 E0.06875
G1 X73.968 Y110.053 E0.59070
G1 X74.258 Y105.625 E0.41771
G1 X69.118 Y103.009 E0.54293
G1 X68.716 Y102.259 E0.08013
G1 X68.859 Y102.102 E0.02002
G1 X69.638 Y102.057 E0.07346
G1 X72.228 Y103.652 E0.28634
G1 X72.515 Y102.123 E0.14643
G1 X79.019 Y106.575 E0.74193
G1 X83.154 Y104.955 E0.41800
G1 X86.999 Y108.617 E0.49986
G1 X87.268 Y108.421 E0.03133
G1 X91.174 Y111.798 E0.48603
G1 X93.337 Y109.854 E0.27374
G1 X82.898 Y94.794 E1.72484
G1 X83.522 Y93.373 E0.14614
G1 X82.617 Y91.935 E0.15993
G1 X84.180 Y89.270 E0.29082
G1 X88.240 Y89.681 E0.38411
G1 X89.955 Y88.591 E0.19128
G1 X90.209 Y88.604 E0.02398
G1 X92.981 Y86.624 E0.32065
G1 X92.574 Y84.660 E0.18876
G1 X94.013 Y83.825 E0.15658
G1 X95.516 Y83.701 E0.14198
G1 X95.804 Y83.250 E0.05040
G1 X96.363 Y83.954 E0.08467
G1 X96.390 Y84.334 E0.03589
G1 X96.774 Y87.563 E0.30609
G1 X98.503 Y87.807 E0.16435
G1 X99.927 Y89.225 E0.18910
G1 X99.799 Y94.630 E0.50897
G1 X102.955 Y95.635 E0.31172
G1 X103.112 Y94.232 E0.13285
G1 X103.648 Y94.321 E0.05120
G1 X103.427 Y95.724 E0.13366
G1 X104.041 Y96.671 E0.10623
G1 X102.760 Y102.481 E0.56000
G1 X105.777 Y103.314 E0.29464
G1 X110.276 Y89.842 E1.33697
G1 X110.401 Y89.792 E0.01274
G1 X112.191 Y89.435 E0.17174
G1 X112.819 Y90.207 E0.09366
G1 X113.216 Y91.067 E0.08918
G1 X112.490 Y92.571 E0.15723
G1 X114.163 Y93.290 E0.17139
G1 X110.429 Y100.120 E0.73273
G1 X112.473 Y100.431 E0.19459
G1 X113.346 Y100.961 E0.09610
G1 X114.552 Y102.746 E0.20282
G1 X116.675 Y100.166 E0.31451
G1 X120.371 Y101.484 E0.36937
G1 X121.355 Y102.203 E0.11471
G1 X121.833 Y103.044 E0.09112
G1 X122.149 Y104.771 E0.16518
G1 X121.839 Y105.411 E0.06699
G1 X119.041 Y107.091 E0.30720
G1 X118.874 Y109.005 E0.18080
G1 X116.941 Y110.046 E0.20669
G1 X119.893 Y111.813 E0.32387
G1 X121.136 Y112.599 E0.13848
G1 X121.574 Y113.479 E0.09252
G1 X132.740 Y109.879 E1.10434
G1 X133.804 Y110.247 E0.10598
G1 X133.084 Y111.094 E0.10471
G1 X127.538 Y112.385 E0.53598
G1 E-2.00000 F1800.00000
G1 X82.906 Y104.718 F7800.000
G1 E2.00000 F1800.00000
G1 X82.671 Y104.989 E0.03370 F840.000
G1 X75.526 Y99.344 E0.85711
G1 X75.289 Y98.375 E0.09392
G1 X76.327 Y98.452 E0.09798
G1 X82.868 Y104.682 E0.85027
G1 E-2.00000 F1800.00000
G1 X122.087 Y93.585 F7800.000
G1 E2.00000 F1800.00000
G1 X122.684 Y92.859 E0.08851 F840.000
G1 X123.076 Y93.005 E0.03935
G1 X122.370 Y93.824 E0.10172
G1 X122.127 Y93.619 E0.02995
G1 X117.920 Y99.947 F7800.000
G1 X120.666 Y100.926 E0.27442 F840.000
G1 X121.832 Y101.777 E0.13589
G1 X122.429 Y102.828 E0.11374
G1 X122.801 Y104.859 E0.19436
G1 X122.321 Y105.851 E0.10375
G1 X119.636 Y107.463 E0.29475
G1 X119.467 Y109.395 E0.18256
G1 X118.205 Y110.074 E0.13491
G1 X120.220 Y111.281 E0.22107
G1 X121.618 Y112.165 E0.15564
G1 X121.894 Y112.720 E0.05836
G1 X132.747 Y109.220 E1.07339
G1 X134.873 Y109.955 E0.21168
G1 X133.427 Y111.656 E0.21018
G1 X128.960 Y112.696 E0.43163
G1 X131.760 Y114.731 E0.32582
G1 X132.036 Y114.993 E0.03579
G1 X129.391 Y118.687 E0.42764
G1 X68.744 Y118.687 E5.70864
G1 X68.562 Y117.869 E0.07890
G1 X66.860 Y117.793 E0.16035
G1 X65.393 Y116.855 E0.16384
G1 X67.279 Y115.035 E0.24668
G1 X70.614 Y115.451 E0.31630
G1 X69.224 Y112.628 E0.29624
G1 X69.328 Y112.489 E0.01634
G1 X72.224 Y110.592 E0.32581
G1 X67.460 Y109.049 E0.47134
G1 X66.736 Y107.976 E0.12185
G1 X66.960 Y107.396 E0.05855
G1 X68.182 Y107.049 E0.11955
G1 X73.401 Y109.151 E0.52959
G1 X73.608 Y105.995 E0.29771
G1 X68.660 Y103.477 E0.52261
G1 X67.956 Y102.163 E0.14030
G1 X68.570 Y101.493 E0.08561
G1 X69.799 Y101.422 E0.11585
G1 X71.782 Y102.643 E0.21924
G1 X72.037 Y101.281 E0.13045
G1 X72.436 Y101.312 E0.03764
G1 X79.099 Y105.872 E0.76008
G1 X81.561 Y104.908 E0.24885
G1 X74.970 Y99.701 E0.79060
G1 X74.478 Y97.688 E0.19509
G1 X76.597 Y97.845 E0.19996
G1 X87.052 Y107.804 E1.35917
G1 X87.300 Y107.623 E0.02897
G1 X91.166 Y110.965 E0.48101
G1 X92.509 Y109.757 E0.17005
G1 X82.185 Y94.863 E1.70589
G1 X82.817 Y93.425 E0.14781
G1 X81.902 Y91.972 E0.16161
G1 X81.992 Y91.764 E0.02137
G1 X83.744 Y88.779 E0.32580
G1 X84.046 Y88.629 E0.03175
G1 X88.088 Y89.037 E0.38239
G1 X89.789 Y87.956 E0.18971
G1 X90.024 Y87.969 E0.02221
G1 X92.287 Y86.352 E0.26175
G1 X91.878 Y84.380 E0.18958
G1 X91.971 Y84.288 E0.01234
G1 X93.821 Y83.214 E0.20133
G1 X95.156 Y83.104 E0.12608
G1 X95.748 Y82.174 E0.10374
G1 X96.973 Y83.717 E0.18539
G1 X97.012 Y84.275 E0.05270
G1 X97.338 Y87.012 E0.25940
G1 X98.796 Y87.218 E0.13866
G1 X100.558 Y88.971 E0.23395
G1 X100.435 Y94.177 E0.49015
G1 X102.418 Y94.808 E0.19595
G1 X102.564 Y93.508 E0.12318
G1 X104.362 Y93.806 E0.17156
G1 X104.082 Y95.585 E0.16948
G1 X104.708 Y96.550 E0.10831
G1 X103.498 Y102.036 E0.52879
G1 X105.372 Y102.554 E0.18303
G1 X109.775 Y89.369 E1.30850
G1 X110.223 Y89.190 E0.04543
G1 X112.203 Y88.796 E0.19001
G1 X112.574 Y88.916 E0.03671
G1 X113.353 Y89.874 E0.11620
G1 X113.907 Y91.073 E0.12436
G1 X113.336 Y92.255 E0.12353
G1 X114.600 Y92.798 E0.12949
G1 X114.839 Y93.356 E0.05712
G1 X111.406 Y99.637 E0.67379
G1 X112.691 Y99.832 E0.12233
G1 X113.787 Y100.498 E0.12073
G1 X114.601 Y101.703 E0.13690
G1 X122.485 Y92.117 E1.16823
G1 X123.634 Y92.546 E0.11544
G1 X123.784 Y93.140 E0.05764
G1 X117.954 Y99.907 E0.84077
G1 X118.988 Y99.664 F7800.000
G1 X120.961 Y100.368 E0.19718 F588.000
G1 X122.309 Y101.352 E0.15707
G1 X123.024 Y102.611 E0.13635
G1 X123.452 Y104.947 E0.22353
G1 X122.802 Y106.291 E0.14051
G1 X120.231 Y107.835 E0.28230
G1 X120.060 Y109.785 E0.18431
G1 X119.470 Y110.103 E0.06313
G1 X120.664 Y110.818 E0.13096
G1 X121.531 Y110.678 E0.08269
G1 X121.629 Y110.985 E0.03036
G1 X121.233 Y111.182 E0.04167
G1 X122.099 Y111.730 E0.09654
G1 X122.214 Y111.960 E0.02420
G1 X132.754 Y108.561 E1.04244
G1 X135.941 Y109.663 E0.31739
G1 X133.769 Y112.218 E0.31565
G1 X130.434 Y112.995 E0.32234
G1 X132.161 Y114.250 E0.20099
G1 X132.807 Y114.864 E0.08388
G1 X132.727 Y115.101 E0.02355
G1 X130.142 Y118.712 E0.41797
G1 X133.116 Y118.714 E0.27993
G1 X133.350 Y119.026 E0.03673
G1 X133.434 Y119.312 E0.02808
G1 X68.243 Y119.312 E6.13638
G1 X68.056 Y118.472 E0.08103
G1 X66.664 Y118.410 E0.13112
G1 X64.390 Y116.955 E0.25413
G1 X67.060 Y114.378 E0.34930
G1 X69.541 Y114.688 E0.23535
G1 X68.593 Y112.762 E0.20207
G1 X68.595 Y112.422 E0.03203
G1 X68.896 Y112.026 E0.04677
G1 X70.790 Y110.785 E0.21315
G1 X67.063 Y109.577 E0.36880
G1 X66.036 Y108.055 E0.17281
G1 X66.489 Y106.880 E0.11861
G1 X68.217 Y106.390 E0.16904
G1 X72.834 Y108.249 E0.46849
G1 X72.957 Y106.365 E0.17770
G1 X68.201 Y103.945 E0.50230
G1 X67.195 Y102.068 E0.20047
G1 X68.281 Y100.883 E0.15120
G1 X69.959 Y100.786 E0.15825
G1 X71.335 Y101.634 E0.15214
G1 X71.526 Y100.615 E0.09760
G1 X72.651 Y100.702 E0.10616
G1 X79.179 Y105.170 E0.74470
G1 X80.319 Y104.723 E0.11524
G1 X74.414 Y100.058 E0.70834
G1 X73.871 Y97.837 E0.21529
G1 X73.846 Y97.135 E0.06607
G1 X74.270 Y97.046 E0.04080
G1 X76.866 Y97.239 E0.24497
G1 X87.104 Y106.991 E1.33102
G1 X87.333 Y106.825 E0.02661
G1 X91.158 Y110.132 E0.47599
G1 X91.682 Y109.661 E0.06636
G1 X81.473 Y94.931 E1.68694
G1 X82.111 Y93.477 E0.14949
G1 X81.197 Y92.026 E0.16150
G1 X81.434 Y91.480 E0.05601
G1 X83.299 Y88.303 E0.34682
G1 X83.929 Y87.989 E0.06624
G1 X85.142 Y88.111 E0.11479
G1 X84.526 Y86.764 E0.13949
G1 X84.559 Y85.099 E0.15674
G1 X85.848 Y86.185 E0.15866
G1 X86.741 Y88.273 E0.21380
G1 X87.935 Y88.394 E0.11298
G1 X89.622 Y87.322 E0.18815
G1 X89.839 Y87.333 E0.02044
G1 X91.592 Y86.080 E0.20285
G1 X91.197 Y84.174 E0.18324
G1 X91.589 Y83.787 E0.05180
G1 X93.629 Y82.602 E0.22210
G1 X94.796 Y82.506 E0.11017
G1 X95.693 Y81.099 E0.15707
G1 X97.353 Y83.191 E0.25141
G1 X97.519 Y83.246 E0.01647
G1 X97.541 Y83.428 E0.01720
G1 X97.582 Y83.480 E0.00629
G1 X97.635 Y84.216 E0.06950
G1 X97.901 Y86.460 E0.21272
G1 X99.090 Y86.628 E0.11296
G1 X101.189 Y88.718 E0.27880
G1 X101.070 Y93.724 E0.47132
G1 X101.882 Y93.982 E0.08019
G1 X102.143 Y91.651 E0.22078
G1 X102.875 Y91.238 E0.07910
G1 X103.395 Y91.758 E0.06921
G1 X103.269 Y92.991 E0.11667
G1 X104.010 Y93.114 E0.07071
G1 X105.565 Y86.383 E0.65028
G1 X105.995 Y86.243 E0.04253
G1 X106.156 Y86.433 E0.02343
G1 X104.736 Y95.446 E0.85885
G1 X105.374 Y96.430 E0.11039
G1 X104.236 Y101.592 E0.49758
G1 X104.967 Y101.794 E0.07142
G1 X109.274 Y88.895 E1.28003
G1 X110.045 Y88.588 E0.07813
G1 X112.241 Y88.151 E0.21074
G1 X112.942 Y88.379 E0.06942
G1 X113.887 Y89.540 E0.14094
G1 X114.598 Y91.079 E0.15955
G1 X114.183 Y91.938 E0.08982
G1 X115.077 Y92.322 E0.09155
G1 X115.532 Y93.389 E0.10922
G1 X112.382 Y99.153 E0.61834
G1 X112.908 Y99.234 E0.05008
G1 X114.228 Y100.035 E0.14536
G1 X114.650 Y100.660 E0.07099
G1 X122.285 Y91.376 E1.13142
G1 X124.159 Y92.075 E0.18823
G1 X124.470 Y93.301 E0.11906
G1 X119.022 Y99.624 E0.78562
G1 X118.831 Y99.977 F7800.000
G1 E-2.00000 F1800.00000
G1 X121.917 Y110.737 F7800.000
G1 E2.00000 F1800.00000
G1 X124.549 Y109.553 E0.27160 F588.000
G1 X131.039 Y106.894 E0.66019
G1 X131.447 Y106.590 E0.04791
G1 E-2.00000 F1800.00000
G1 X133.131 Y110.557 F7800.000
G1 E2.00000 F1800.00000
G1 X132.734 Y110.536 E0.07942 F480.000
G1 X130.195 Y111.240 E0.52581
G1 X126.697 Y112.209 E0.34167 F480.000
G1 E-2.00000 F1800.00000
G1 X116.978 Y99.942 F7800.000
G1 E2.00000 F1800.00000
G1 X122.027 Y93.943 E1.56485 F480.000
G1 E-2.00000 F1800.00000
G1 X118.907 Y101.420 F7800.000
G1 E2.00000 F1800.00000
G1 X121.621 Y104.134 E0.36581 F1080.000
G1 X121.139 Y102.757 F7800.000
G1 X120.715 Y102.332 E0.05718 F1080.000
G1 X117.516 Y100.923 F7800.000
G1 X121.643 Y105.050 E0.55629 F1080.000
G1 X121.143 Y105.445 E0.06073
G1 X116.539 Y100.841 E0.62059
G1 X116.135 Y101.332 E0.06060
G1 X120.584 Y105.781 E0.59966
G1 X120.025 Y106.117 E0.06217
G1 X115.731 Y101.824 E0.57872
G1 X115.328 Y102.315 E0.06060
G1 X119.465 Y106.452 E0.55778
G1 X118.906 Y106.788 E0.06217
G1 X114.924 Y102.806 E0.53684
G1 X114.520 Y103.297 E0.06060
G1 X118.644 Y107.420 E0.55586
G1 X118.572 Y108.243 E0.07875
G1 X110.930 Y100.601 E1.03017
G1 X109.876 Y100.442 E0.10157
G1 X107.794 Y98.360 E0.28070
G1 E-2.00000 F1800.00000
G1 X103.588 Y96.839 F7800.000
G1 E2.00000 F1800.00000
G1 X102.771 Y96.022 E0.11015 F1080.000
G1 X101.458 Y95.604 E0.13129
G1 X103.471 Y97.617 E0.27131
G1 X103.309 Y98.350 E0.07157
G1 X100.146 Y95.187 E0.42645
G1 X102.501 Y102.017 F7800.000
G1 X89.655 Y89.170 E1.73168 F1080.000
G1 X90.312 Y88.932 E0.06658
G1 X102.663 Y101.283 E1.66496
G1 X102.824 Y100.550 E0.07157
G1 X90.833 Y88.559 E1.61639
G1 X91.355 Y88.186 E0.06115
G1 X102.986 Y99.817 E1.56782
G1 X103.148 Y99.084 E0.07157
G1 X91.877 Y87.813 E1.51925
G1 X92.399 Y87.440 E0.06115
G1 X99.427 Y94.468 E0.94735
G1 X99.448 Y93.594 E0.08336
G1 X92.921 Y87.067 E0.87978
G1 X93.405 Y86.656 E0.06051
G1 X99.468 Y92.720 E0.81739
G1 X99.489 Y91.845 E0.08336
G1 X93.171 Y85.527 E0.85171
G1 X93.211 Y84.672 E0.08159
G1 X99.510 Y90.971 E0.84913
G1 X99.530 Y90.097 E0.08336
G1 X97.502 Y88.069 E0.27343
G1 X96.292 Y86.859 F7800.000
G1 X93.777 Y84.343 E0.33910 F1080.000
G1 X94.484 Y84.155 E0.06973
G1 X96.172 Y85.843 E0.22751
G1 X96.051 Y84.828 E0.09750
G1 X95.311 Y84.087 E0.09976
G1 X83.381 Y94.531 F7800.000
G1 X106.535 Y117.684 E3.12112 F1080.000
G1 X107.430 Y117.684 E0.08530
G1 X83.654 Y93.909 E3.20494
G1 X83.927 Y93.287 E0.06474
G1 X108.324 Y117.684 E3.28876
G1 X109.219 Y117.684 E0.08530
G1 X83.173 Y91.638 E3.51106
G1 X83.504 Y91.074 E0.06233
G1 X110.114 Y117.684 E3.58708
G1 X111.009 Y117.684 E0.08530
G1 X83.835 Y90.510 E3.66311
G1 X84.166 Y89.946 E0.06233
G1 X111.904 Y117.684 E3.73913
G1 X112.799 Y117.684 E0.08530
G1 X84.847 Y89.732 E3.76791
G1 X85.843 Y89.833 E0.09538
G1 X113.694 Y117.684 E3.75434
G1 X114.589 Y117.684 E0.08530
G1 X86.839 Y89.934 E3.74077
G1 X87.834 Y90.034 E0.09538
G1 X115.484 Y117.684 E3.72721
G1 X116.379 Y117.684 E0.08530
G1 X88.561 Y89.866 E3.74990
G1 X89.108 Y89.518 E0.06179
G1 X117.273 Y117.684 E3.79679
G1 X118.168 Y117.684 E0.08530
G1 X103.643 Y103.159 E1.95799
G1 X104.880 Y103.501 E0.12230
G1 X119.063 Y117.684 E1.91192
G1 X119.958 Y117.684 E0.08530
G1 X106.002 Y103.727 E1.88138
G1 X106.226 Y103.056 E0.06742
G1 X120.853 Y117.684 E1.97182
G1 X121.748 Y117.684 E0.08530
G1 X106.450 Y102.385 E2.06226
G1 X106.674 Y101.715 E0.06742
G1 X122.643 Y117.684 E2.15269
G1 X120.219 Y112.575 F7800.000
G1 X125.328 Y117.684 E0.68867 F1080.000
G1 X126.222 Y117.684 E0.08530
G1 X122.183 Y113.645 E0.54449
G1 X122.860 Y113.427 E0.06777
G1 X127.117 Y117.684 E0.57390
G1 X128.012 Y117.684 E0.08530
G1 X123.537 Y113.208 E0.60332
G1 X124.213 Y112.990 E0.06777
G1 X128.907 Y117.684 E0.63273
G1 X129.299 Y117.181 E0.06077
G1 X124.890 Y112.772 E0.59440
G1 X125.567 Y112.554 E0.06777
G1 X129.673 Y116.660 E0.55351
G1 X130.046 Y116.138 E0.06114
G1 X126.810 Y112.902 E0.43629
G1 X128.619 Y113.816 F7800.000
G1 X130.420 Y115.617 E0.24278 F1080.000
G1 X117.928 Y111.179 F7800.000
G1 X124.433 Y117.684 E0.87684 F1080.000
G1 X123.538 Y117.684 E0.08530
G1 X106.898 Y101.044 E2.24313
G1 X107.122 Y100.373 E0.06742
G1 X116.601 Y109.852 E1.27783
G1 X117.183 Y109.539 E0.06297
G1 X107.346 Y99.702 E1.32605
G1 X107.570 Y99.031 E0.06742
G1 X117.764 Y109.226 E1.37426
G1 X118.346 Y108.912 E0.06297
G1 X109.874 Y100.441 E1.14204
G1 X110.192 Y99.864 E0.06278
G1 X108.018 Y97.689 E0.29314
G1 X108.242 Y97.018 E0.06742
G1 X110.508 Y99.285 E0.30557
G1 X110.825 Y98.706 E0.06286
G1 X108.466 Y96.347 E0.31801
G1 X108.690 Y95.677 E0.06742
G1 X111.141 Y98.128 E0.33044
G1 X111.457 Y97.549 E0.06286
G1 X108.914 Y95.006 E0.34288
G1 X109.138 Y94.335 E0.06742
G1 X111.773 Y96.971 E0.35532
G1 X112.090 Y96.392 E0.06286
G1 X109.362 Y93.664 E0.36775
G1 X109.586 Y92.993 E0.06742
G1 X112.406 Y95.813 E0.38019
G1 X112.722 Y95.235 E0.06286
G1 X109.810 Y92.322 E0.39262
G1 X110.034 Y91.651 E0.06742
G1 X113.038 Y94.656 E0.40506
G1 X113.355 Y94.077 E0.06286
G1 X110.258 Y90.980 E0.41749
G1 X110.482 Y90.309 E0.06742
G1 X112.322 Y92.150 E0.24810
G1 X112.613 Y91.546 E0.06388
G1 X111.085 Y90.018 E0.20604
G1 X111.831 Y89.869 E0.07252
G1 X112.252 Y90.290 E0.05670
G1 X111.985 Y100.762 F7800.000
G1 X113.997 Y102.773 E0.27115 F1080.000
G1 X93.212 Y108.836 F7800.000
G1 X102.060 Y117.684 E1.19268 F1080.000
G1 X101.165 Y117.684 E0.08530
G1 X93.565 Y110.084 E1.02446
G1 X93.094 Y110.508 E0.06040
G1 X100.270 Y117.684 E0.96736
G1 X99.375 Y117.684 E0.08530
G1 X92.623 Y110.931 E0.91027
G1 X92.151 Y111.355 E0.06040
G1 X98.481 Y117.684 E0.85318
G1 X97.586 Y117.684 E0.08530
