; generated by Slic3r 1.2.9 on 2016-01-07 at 16:34:41

; external perimeters extrusion width = 0.35mm
; perimeters extrusion width = 0.39mm
; infill extrusion width = 0.39mm
; solid infill extrusion width = 0.39mm
; top infill extrusion width = 0.39mm

M190 S80 ; set bed temperature
M109 S230
G28 ; home all axes
G92 E0  ;reset extruder
G21 ; set units to millimeters
G90 ; use absolute coordinates
M83 ; use relative distances for extrusion
G1 E-2.00000 F1800.00000
G1 Z0.350 F7800.000
G1 X67.840 Y84.139 F7800.000
G1 E2.00000 F1800.00000
G1 X69.252 Y83.334 E0.15302 F1440.000
G1 X80.623 Y78.593 E1.15964
G1 X83.175 Y78.083 E0.24495
G1 X115.846 Y78.094 E3.07528
G1 X117.243 Y78.244 E0.13224 F1440.000
G1 X117.568 Y78.314 E0.03138
G1 X118.409 Y78.555 E0.08235
G1 X128.983 Y82.354 E1.05757
G1 X129.830 Y82.670 E0.08508
G1 X131.807 Y83.832 E0.21588
G1 X133.027 Y85.205 E0.17284
G1 X137.793 Y92.362 E0.80939
G1 X138.574 Y93.971 E0.16840
G1 X138.902 Y96.357 E0.22664
G1 X138.622 Y102.432 E0.57246
G1 X138.483 Y103.509 E0.10222
G1 X137.046 Y110.248 E0.64861
G1 X136.031 Y112.611 E0.24209
G1 X134.063 Y114.505 E0.25707
G1 X123.627 Y121.017 E1.15788
G1 X121.483 Y121.831 E0.21588
G1 X120.231 Y121.948 E0.11839
G1 X78.913 Y121.892 E3.88925
G1 X76.655 Y121.492 E0.21588
G1 X75.535 Y120.960 E0.11669
G1 X74.789 Y120.514 E0.08181
G1 X65.445 Y114.603 E1.04069
G1 X63.522 Y112.750 E0.25142
G1 X63.366 Y112.522 E0.02599
G1 X62.268 Y109.678 E0.28696
G1 X61.228 Y102.111 E0.71899
G1 X60.637 Y97.215 E0.46416
G1 X60.761 Y94.925 E0.21588
G1 X61.680 Y92.781 E0.21954
G1 X66.267 Y85.808 E0.78570
G1 X67.804 Y84.177 E0.21094
G1 E-2.00000 F1800.00000
G1 X86.019 Y111.755 F7800.000
G1 E2.00000 F1800.00000
G1 X85.614 Y111.955 E0.04251 F840.000
G1 X85.474 Y111.373 E0.05632
G1 X85.797 Y111.263 E0.03213
G1 X85.997 Y111.707 E0.04585
G1 E-2.00000 F1800.00000
G1 X80.850 Y108.861 F7800.000
G1 E2.00000 F1800.00000
G1 X80.333 Y109.203 E0.05831 F840.000
G1 X80.516 Y108.543 E0.06447
G1 X80.831 Y108.575 E0.02980
G1 X80.846 Y108.809 E0.02207
G1 X80.674 Y106.241 F7800.000
G1 X80.712 Y106.816 E0.05424 F840.000
G1 X78.621 Y107.324 E0.20258
G1 X77.826 Y106.186 E0.13073
G1 X78.248 Y105.728 E0.05858
G1 X77.829 Y104.891 E0.08811
G1 X77.560 Y101.972 E0.27600
G1 X76.919 Y102.526 E0.07973
G1 X76.326 Y100.159 E0.22969
G1 X74.824 Y100.447 E0.14397
G1 X74.846 Y100.379 E0.00671
G1 X71.425 Y101.039 E0.32789
G1 X71.463 Y98.540 E0.23531
G1 X73.474 Y99.188 E0.19893
G1 X73.995 Y98.142 E0.11000
G1 X76.668 Y96.452 E0.29766
G1 X75.978 Y96.081 E0.07374
G1 X77.169 Y93.600 E0.25897
G1 X77.842 Y93.240 E0.07194
G1 X78.638 Y95.550 E0.22996
G1 X81.634 Y94.711 E0.29291
G1 X80.950 Y91.570 E0.30252
G1 X81.399 Y91.139 E0.05861
G1 X82.465 Y91.740 E0.11527
G1 X82.396 Y88.797 E0.27710
G1 X83.590 Y88.629 E0.11350
G1 X83.658 Y87.676 E0.08990
G1 X84.109 Y87.996 E0.05206
G1 X84.692 Y88.972 E0.10708
G1 X85.262 Y88.883 E0.05429
G1 X85.939 Y89.449 E0.08308
G1 X87.259 Y89.175 E0.12689
G1 X86.920 Y89.713 E0.05983
G1 X87.173 Y90.301 E0.06029
G1 X82.301 Y97.290 E0.80188
G1 X84.479 Y99.238 E0.27509
G1 X85.924 Y97.971 E0.18089
G1 X88.360 Y95.633 E0.31782
G1 X89.589 Y96.073 E0.12282
G1 X89.585 Y96.341 E0.02526
G1 X89.399 Y96.402 E0.01836
G1 X90.624 Y97.081 E0.13185
G1 X91.027 Y97.974 E0.09220
G1 X91.727 Y97.692 E0.07104
G1 X92.133 Y97.917 E0.04369
G1 X91.570 Y98.722 E0.09249
G1 X89.885 Y98.877 E0.15925
G1 X90.410 Y99.936 E0.11123
G1 X89.093 Y99.824 E0.12439
G1 X88.668 Y102.930 E0.29505
G1 X90.615 Y103.299 E0.18657
G1 X90.785 Y104.032 E0.07088
G1 X90.407 Y105.481 E0.14089
G1 X88.956 Y104.434 E0.16843
G1 X85.066 Y105.333 E0.37580
G1 X86.563 Y106.730 E0.19269
G1 X85.872 Y108.207 E0.15355
G1 X85.671 Y108.516 E0.03471
G1 X84.922 Y109.082 E0.08830
G1 X84.600 Y107.746 E0.12936
G1 X83.301 Y107.570 E0.12341
G1 X80.720 Y106.265 E0.27221
G1 X81.371 Y107.294 F7800.000
G1 X81.498 Y109.182 E0.17806 F840.000
G1 X79.531 Y110.483 E0.22201
G1 X79.683 Y110.513 E0.01459
G1 X79.317 Y113.531 E0.28615
G1 X78.682 Y112.830 E0.08906
G1 X80.127 Y107.601 E0.51060
G1 X78.562 Y107.982 E0.15162
G1 X78.243 Y107.874 E0.03172
G1 X77.321 Y106.555 E0.15151
G1 X75.533 Y109.593 E0.33188
G1 X74.847 Y109.622 E0.06462
G1 X74.646 Y108.947 E0.06621
G1 X76.468 Y106.857 E0.26105
G1 X76.541 Y106.656 E0.02007
G1 X77.496 Y105.622 E0.13254
G1 X77.218 Y105.066 E0.05852
G1 X77.049 Y103.239 E0.17267
G1 X76.096 Y104.064 E0.11866
G1 X75.859 Y103.907 E0.02676
G1 X76.287 Y102.575 E0.13173
G1 X75.863 Y100.884 E0.16409
G1 X73.905 Y101.259 E0.18771
G1 X73.926 Y101.193 E0.00656
G1 X70.453 Y101.863 E0.33294
G1 X70.480 Y100.987 E0.08251
G1 X70.801 Y100.975 E0.03025
G1 X70.830 Y99.034 E0.18269
G1 X69.659 Y98.952 E0.11056
G1 X69.420 Y98.622 E0.03837
G1 X70.752 Y97.654 E0.15494
G1 X73.155 Y98.429 E0.23765
G1 X73.514 Y97.707 E0.07584
G1 X75.430 Y96.495 E0.21344
G1 X74.227 Y95.848 E0.12858
G1 X74.216 Y95.723 E0.01180
G1 X74.302 Y95.076 E0.06144
G1 X72.947 Y94.263 E0.14879
G1 X73.272 Y93.690 E0.06196
G1 X73.484 Y93.535 E0.02469
G1 X75.578 Y95.471 E0.26836
G1 X76.479 Y93.593 E0.19609
G1 X76.273 Y93.353 E0.02971
G1 X76.733 Y93.074 E0.05063
G1 X76.864 Y93.054 E0.01253
G1 X78.194 Y92.342 E0.14200
G1 X79.037 Y94.789 E0.24355
G1 X80.898 Y94.268 E0.18196
G1 X80.265 Y91.362 E0.27993
G1 X80.863 Y90.787 E0.07807
G1 X80.790 Y90.078 E0.06706
G1 X81.815 Y90.656 E0.11069
G1 X81.758 Y88.256 E0.22595
G1 X83.002 Y88.081 E0.11828
G1 X83.116 Y86.481 E0.15096
G1 X83.842 Y86.541 E0.06854
G1 X83.761 Y86.984 E0.04241
G1 X84.578 Y87.562 E0.09418
G1 X85.012 Y88.290 E0.07978
G1 X85.445 Y88.222 E0.04122
G1 X86.108 Y88.775 E0.08134
G1 X87.633 Y88.459 E0.14658
G1 X87.966 Y89.225 E0.07860
G1 X87.624 Y89.768 E0.06043
G1 X87.884 Y90.374 E0.06206
G1 X83.130 Y97.193 E0.78246
G1 X84.483 Y98.404 E0.17089
G1 X85.501 Y97.511 E0.12747
G1 X88.207 Y94.915 E0.35291
G1 X89.964 Y95.544 E0.17569
G1 X90.463 Y95.202 E0.05696
G1 X91.057 Y96.521 E0.13618
G1 X90.960 Y96.553 E0.00961
G1 X91.109 Y96.635 E0.01597
G1 X91.350 Y97.170 E0.05524
G1 X91.769 Y97.001 E0.04257
G1 X93.042 Y97.706 E0.13698
G1 X91.916 Y99.318 E0.18505
G1 X90.850 Y99.416 E0.10080
G1 X91.463 Y100.653 E0.12994
G1 X89.632 Y100.497 E0.17297
G1 X89.367 Y102.426 E0.18329
G1 X90.763 Y102.691 E0.13368
G1 X91.168 Y102.917 E0.04371
G1 X91.428 Y104.041 E0.10860
G1 X91.088 Y105.346 E0.12696
G1 X93.372 Y106.338 E0.23434
G1 X93.072 Y106.964 E0.06530
G1 X93.668 Y107.278 E0.06344
G1 X93.765 Y107.977 E0.06640
G1 X93.101 Y108.194 E0.06576
G1 X88.821 Y105.107 E0.49680
G1 X86.352 Y105.678 E0.23855
G1 X87.322 Y106.583 E0.12493
G1 X86.419 Y108.511 E0.20040
G1 X86.135 Y108.949 E0.04912
G1 X85.616 Y109.341 E0.06126
G1 X86.836 Y112.047 E0.27945
G1 X86.092 Y112.416 E0.07819
G1 X86.134 Y112.509 E0.00963
G1 X85.358 Y113.187 E0.09696
G1 X85.289 Y112.915 E0.02639
G1 X85.187 Y112.852 E0.01127
G1 X84.093 Y108.308 E0.43996
G1 X83.113 Y108.175 E0.09307
G1 X81.418 Y107.318 E0.17885
G1 E-2.00000 F1800.00000
G1 X76.784 Y89.330 F7800.000
G1 E2.00000 F1800.00000
G1 X76.618 Y88.985 E0.03607 F840.000
G1 X76.913 Y88.621 E0.04411
G1 X77.111 Y89.195 E0.05714
G1 X76.833 Y89.310 E0.02832
G1 X77.336 Y89.850 F7800.000
G1 X78.005 Y91.793 E0.19350 F840.000
G1 X77.690 Y91.933 E0.03243
G1 X76.701 Y90.123 E0.19416
G1 X77.288 Y89.870 E0.06015
G1 E-2.00000 F1800.00000
G1 X88.694 Y107.863 F7800.000
G1 E2.00000 F1800.00000
G1 X89.947 Y109.032 E0.16128 F840.000
G1 X89.927 Y109.446 E0.03906
G1 X89.511 Y109.436 E0.03916
G1 X88.439 Y108.101 E0.16124
G1 X88.656 Y107.899 E0.02790
G1 X87.425 Y107.836 F7800.000
G1 X86.967 Y108.815 E0.10172 F588.000
G1 X86.599 Y109.381 E0.06353
G1 X86.390 Y109.539 E0.02464
G1 X87.654 Y112.340 E0.28920
G1 X86.908 Y112.709 E0.07837
G1 X87.063 Y113.058 E0.03594
G1 X86.806 Y113.916 E0.08430
G1 X86.008 Y113.449 E0.08702
G1 X85.651 Y113.760 E0.04462
G1 X85.329 Y113.773 E0.03034
G1 X84.803 Y113.541 E0.05410
G1 X84.745 Y113.312 E0.02218
G1 X84.640 Y113.247 E0.01168
G1 X83.586 Y108.870 E0.42380
G1 X82.925 Y108.781 E0.06274
G1 X82.068 Y108.347 E0.09043
G1 X82.341 Y112.403 E0.38262
G1 X81.795 Y113.150 E0.08712
G1 X81.216 Y112.429 E0.08707
G1 X81.265 Y110.085 E0.22068
G1 X80.285 Y110.733 E0.11053
G1 X79.823 Y114.552 E0.36210
G1 X79.473 Y114.790 E0.03986
G1 X78.983 Y114.896 E0.04725
G1 X78.571 Y114.651 E0.04515
G1 X78.303 Y114.287 E0.04248
G1 X78.474 Y113.531 E0.07293
G1 X77.988 Y112.995 E0.06817
G1 X79.242 Y108.460 E0.44288
G1 X78.534 Y108.632 E0.06854
G1 X77.848 Y108.401 E0.06811
G1 X77.366 Y107.710 E0.07929
G1 X75.899 Y110.203 E0.27229
G1 X74.927 Y110.244 E0.09158
G1 X74.441 Y110.179 E0.04615
G1 X74.267 Y109.862 E0.03402
G1 X73.949 Y108.796 E0.10468
G1 X75.920 Y106.535 E0.28240
G1 X75.996 Y106.325 E0.02095
G1 X76.744 Y105.515 E0.10379
G1 X76.606 Y105.240 E0.02894
G1 X76.539 Y104.507 E0.06935
G1 X75.511 Y105.395 E0.12791
G1 X75.125 Y105.306 E0.03729
G1 X72.251 Y107.512 E0.34099
G1 X72.024 Y107.426 E0.02288
G1 X70.086 Y108.876 E0.22780
G1 X69.689 Y108.847 E0.03748
G1 X69.189 Y108.699 E0.04903
G1 X69.234 Y108.198 E0.04739
G1 X69.360 Y107.802 E0.03911
G1 X71.432 Y106.538 E0.22850
G1 X71.456 Y106.260 E0.02624
G1 X75.132 Y104.125 E0.40018
G1 X75.638 Y102.553 E0.15543
G1 X75.401 Y101.609 E0.09166
G1 X72.986 Y102.072 E0.23144
G1 X73.007 Y102.007 E0.00641
G1 X69.805 Y102.625 E0.30698
G1 X69.831 Y101.775 E0.08010
G1 X68.469 Y101.887 E0.12867
G1 X68.163 Y101.186 E0.07198
G1 X68.381 Y100.445 E0.07275
G1 X70.185 Y100.374 E0.16995
G1 X70.197 Y99.616 E0.07129
G1 X69.323 Y99.555 E0.08241
G1 X68.549 Y98.483 E0.12454
G1 X69.810 Y97.566 E0.14677
G1 X68.053 Y97.157 E0.16983
G1 X67.691 Y96.731 E0.05260
G1 X67.598 Y96.460 E0.02692
G1 X68.316 Y96.212 E0.07155
G1 X72.835 Y97.669 E0.44689
G1 X73.131 Y97.075 E0.06244
G1 X73.261 Y97.128 E0.01323
G1 X74.192 Y96.539 E0.10377
G1 X73.634 Y96.238 E0.05968
G1 X73.588 Y95.709 E0.05002
G1 X73.629 Y95.401 E0.02928
G1 X72.562 Y94.760 E0.11714
G1 X72.279 Y94.174 E0.06123
G1 X72.795 Y93.264 E0.09849
G1 X73.421 Y92.808 E0.07292
G1 X73.563 Y92.757 E0.01419
G1 X75.381 Y94.437 E0.23297
G1 X75.739 Y93.691 E0.07796
G1 X75.522 Y93.439 E0.03126
G1 X75.936 Y92.827 E0.06950
G1 X76.515 Y92.475 E0.06384
G1 X76.664 Y92.453 E0.01417
G1 X77.127 Y92.205 E0.04941
G1 X75.823 Y89.819 E0.25591
G1 X76.240 Y89.640 E0.04274
G1 X75.882 Y88.898 E0.07755
G1 X76.402 Y88.259 E0.07761
G1 X76.737 Y88.150 E0.03307
G1 X77.462 Y88.295 E0.06962
G1 X79.436 Y94.028 E0.57077
G1 X80.162 Y93.825 E0.07100
G1 X79.580 Y91.154 E0.25734
G1 X80.210 Y90.548 E0.08229
G1 X80.086 Y89.331 E0.11516
G1 X80.320 Y89.096 E0.03123
G1 X81.164 Y89.572 E0.09116
G1 X81.129 Y88.069 E0.14146
G1 X81.545 Y87.655 E0.05524
G1 X82.415 Y87.532 E0.08273
G1 X82.526 Y85.969 E0.14753
G1 X83.115 Y85.226 E0.08929
G1 X83.433 Y85.880 E0.06840
G1 X83.946 Y85.922 E0.04849
G1 X84.528 Y86.260 E0.06330
G1 X84.447 Y86.704 E0.04246
G1 X85.047 Y87.128 E0.06915
G1 X85.332 Y87.607 E0.05247
G1 X85.628 Y87.560 E0.02815
G1 X86.277 Y88.102 E0.07959
G1 X87.084 Y87.935 E0.07761
G1 X87.104 Y87.889 E0.00466
G1 X87.978 Y87.801 E0.08269
G1 X88.077 Y87.971 E0.01856
G1 X88.130 Y87.965 E0.00502
G1 X88.170 Y88.127 E0.01570
G1 X88.671 Y89.278 E0.11821
G1 X88.328 Y89.823 E0.06065
G1 X88.595 Y90.447 E0.06383
G1 X83.959 Y97.096 E0.76303
G1 X84.487 Y97.569 E0.06668
G1 X85.079 Y97.050 E0.07405
G1 X90.770 Y91.589 E0.74250
G1 X91.740 Y91.490 E0.09172
G1 X91.518 Y92.456 E0.09323
G1 X88.903 Y94.500 E0.31249
G1 X89.874 Y94.848 E0.09714
G1 X92.482 Y93.063 E0.29750
G1 X93.080 Y93.017 E0.05638
G1 X93.085 Y93.044 E0.00257
G1 X94.464 Y93.123 E0.13007
G1 X94.015 Y93.962 E0.08950
G1 X91.863 Y95.057 E0.22727
G1 X91.886 Y95.402 E0.03254
G1 X91.358 Y95.666 E0.05559
G1 X91.673 Y96.366 E0.07231
G1 X94.279 Y95.317 E0.26440
G1 X94.559 Y96.043 E0.07332
G1 X92.522 Y96.704 E0.20159
G1 X93.951 Y97.496 E0.15387
G1 X92.801 Y99.143 E0.18908
G1 X94.577 Y98.921 E0.16853
G1 X95.094 Y99.420 E0.06758
G1 X94.708 Y99.666 E0.04310
G1 X93.839 Y99.705 E0.08193
G1 X93.824 Y99.770 E0.00620
G1 X91.814 Y99.955 E0.19003
G1 X92.140 Y100.613 E0.06920
G1 X92.116 Y100.798 E0.01753
G1 X91.736 Y101.303 E0.05950
G1 X90.170 Y101.170 E0.14794
G1 X90.067 Y101.923 E0.07152
G1 X90.979 Y102.096 E0.08736
G1 X92.999 Y103.224 E0.21777
G1 X92.873 Y103.531 E0.03123
G1 X91.890 Y103.264 E0.09592
G1 X92.072 Y104.050 E0.07597
G1 X91.828 Y104.986 E0.09108
G1 X94.040 Y105.947 E0.22700
G1 X94.143 Y106.175 E0.02351
G1 X93.895 Y106.691 E0.05393
G1 X94.230 Y106.868 E0.03561
G1 X94.331 Y107.437 E0.05440
G1 X94.443 Y108.395 E0.09082
G1 X93.627 Y108.692 E0.08166
G1 X92.983 Y108.880 E0.06318
G1 X88.685 Y105.779 E0.49882
G1 X87.637 Y106.022 E0.10130
G1 X90.586 Y108.773 E0.37961
G1 X90.521 Y110.086 E0.12375
G1 X89.206 Y110.054 E0.12389
G1 X87.458 Y107.877 E0.26275
G1 X87.134 Y107.642 F7800.000
G1 E-2.00000 F1800.00000
G1 X75.250 Y93.217 F7800.000
G1 E2.00000 F1800.00000
G1 X71.859 Y89.427 E0.47871 F588.000
G1 E-2.00000 F1800.00000
G1 X68.695 Y95.071 F7800.000
G1 E2.00000 F1800.00000
G1 X69.049 Y95.336 E0.04161 F588.000
G1 X72.834 Y96.886 E0.38499
G1 E-2.00000 F1800.00000
G1 X74.537 Y103.045 F7800.000
G1 E2.00000 F1800.00000
G1 X69.985 Y104.882 E0.46208 F840.000
G1 X69.601 Y104.778 E0.03748
G1 X69.466 Y104.664 E0.01656
G1 X69.501 Y104.485 E0.01718
G1 X69.729 Y104.166 E0.03687
G1 X74.416 Y102.706 E0.46211
G1 X74.519 Y102.996 E0.02894
G1 X74.191 Y102.992 F7800.000
G1 E-2.00000 F1800.00000
G1 X93.260 Y103.510 F7800.000
G1 E2.00000 F1800.00000
G1 X95.159 Y104.285 E0.19312 F588.000
G1 E-2.00000 F1800.00000
G1 X92.737 Y106.940 F7800.000
G1 E2.00000 F1800.00000
G1 X90.658 Y105.757 E0.47735 F480.000
G1 X92.571 Y107.232 F7800.000
G1 X93.425 Y107.761 E0.09461 F480.000
G1 E-2.00000 F1800.00000
G1 X85.534 Y111.023 F7800.000
G1 E2.00000 F1800.00000
G1 X84.987 Y109.424 E0.33715 F480.000
G1 E-2.00000 F1800.00000
G1 X81.709 Y109.417 F7800.000
G1 E2.00000 F1800.00000
G1 X81.774 Y112.239 E0.26572 F480.000
G1 X81.683 Y112.511 E0.02702
G1 E-2.00000 F1800.00000
G1 X79.390 Y114.469 F7800.000
G1 E2.00000 F1800.00000
G1 X79.015 Y114.161 E0.04571 F480.000
G1 X78.731 Y113.814 E0.04222
G1 E-2.00000 F1800.00000
G1 X75.075 Y109.291 F7800.000
G1 E2.00000 F1800.00000
G1 X76.448 Y107.384 E0.22118 F480.000
G1 X78.450 Y105.987 F7800.000
G1 X79.269 Y106.806 E0.10993 F1080.000
G1 X79.986 Y106.631 E0.07005
G1 X78.423 Y105.068 E0.20984
G1 X78.129 Y103.883 E0.11591
G1 X80.270 Y106.024 E0.28745
G1 X81.074 Y105.937 F7800.000
G1 X78.039 Y102.902 E0.40746 F1080.000
G1 X77.948 Y101.920 F7800.000
G1 X82.877 Y106.848 E0.66167 F1080.000
G1 X84.212 Y107.292 F7800.000
G1 X74.887 Y97.967 E1.25193 F1080.000
G1 X75.433 Y97.622 E0.06133
G1 X85.666 Y107.855 E1.37394
G1 X85.951 Y107.248 E0.06363
G1 X75.979 Y97.276 E1.33880
G1 X76.525 Y96.931 E0.06133
G1 X84.660 Y105.066 E1.09218
G1 X85.384 Y104.899 E0.07053
G1 X77.071 Y96.586 E1.11606
G1 X76.708 Y95.332 F7800.000
G1 X86.107 Y104.731 E1.26190 F1080.000
G1 X86.831 Y104.564 E0.07053
G1 X78.279 Y96.011 E1.14823
G1 X77.909 Y94.750 E0.12478
G1 X77.286 Y94.128 E0.08356
G1 X76.997 Y94.730 E0.06341
G1 X78.377 Y96.109 E0.18518
G1 X78.975 Y95.816 E0.06325
G1 X87.555 Y104.397 E1.15194
G1 X89.294 Y103.461 F7800.000
G1 X90.308 Y104.476 E0.13623 F1080.000
G1 E-2.00000 F1800.00000
G1 X88.500 Y96.428 F7800.000
G1 E2.00000 F1800.00000
G1 X90.522 Y98.450 E0.27147 F1080.000
G1 X89.706 Y98.525 E0.07780
G1 X87.800 Y96.620 E0.25584
G1 X87.345 Y97.056 E0.05984
G1 X89.593 Y99.304 E0.30180
G1 X88.805 Y99.408 E0.07541
G1 X86.890 Y97.493 E0.25713
G1 X86.435 Y97.929 E0.05984
G1 X88.680 Y100.174 E0.30136
G1 X88.573 Y100.958 E0.07511
G1 X85.974 Y98.359 E0.34892
G1 X85.499 Y98.775 E0.05996
G1 X88.465 Y101.742 E0.39826
G1 X88.358 Y102.525 E0.07511
G1 X85.024 Y99.192 E0.44759
G1 X84.549 Y99.608 E0.05996
G1 X89.003 Y104.062 E0.59794
G1 X88.279 Y104.229 E0.07053
G1 X79.671 Y95.621 E1.15564
G1 X80.368 Y95.426 E0.06864
G1 X82.038 Y97.097 E0.22423
G1 X82.404 Y96.571 E0.06077
G1 X81.064 Y95.231 E0.17990
G1 X81.760 Y95.036 E0.06864
G1 X82.770 Y96.046 E0.13557
G1 X83.136 Y95.521 E0.06077
G1 X81.978 Y94.363 E0.15550
G1 X81.730 Y93.223 E0.11072
G1 X83.502 Y94.996 E0.23799
G1 X83.868 Y94.471 E0.06077
G1 X81.481 Y92.084 E0.32048
G1 X82.678 Y92.389 E0.11721
G1 X84.234 Y93.946 E0.20902
