; generated by Slic3r 1.2.9 on 2016-01-07 at 16:33:35

; external perimeters extrusion width = 0.35mm
; perimeters extrusion width = 0.39mm
; infill extrusion width = 0.39mm
; solid infill extrusion width = 0.39mm
; top infill extrusion width = 0.39mm

M190 S80 ; set bed temperature
M109 S230
G28 ; home all axes
G92 E0  ;reset extruder
G21 ; set units to millimeters
G90 ; use absolute coordinates
M83 ; use relative distances for extrusion
G1 E-2.00000 F1800.00000
G1 Z0.350 F7800.000
G1 X87.702 Y82.371 F7800.000
G1 E2.00000 F1800.00000
G1 X88.672 Y81.338 E0.13341 F1440.000
G1 X90.508 Y79.964 E0.21588
G1 X91.866 Y79.454 E0.13653
G1 X96.398 Y78.299 E0.44025
G1 X99.433 Y78.244 E0.28569
G1 X99.759 Y78.314 E0.03138
G1 X100.600 Y78.555 E0.08235 F1440.000
G1 X112.020 Y82.670 E1.14265
G1 X113.997 Y83.832 E0.21588
G1 X115.217 Y85.205 E0.17284
G1 X119.983 Y92.362 E0.80939
G1 X120.764 Y93.971 E0.16840
G1 X121.092 Y96.357 E0.22664
G1 X120.812 Y102.432 E0.57246
G1 X120.674 Y103.509 E0.10222
G1 X119.236 Y110.248 E0.64861
G1 X118.222 Y112.611 E0.24209
G1 X116.254 Y114.505 E0.25707
G1 X105.818 Y121.017 E1.15788
G1 X103.674 Y121.831 E0.21588
G1 X101.565 Y121.892 E0.19856
G1 X93.446 Y120.822 E0.77084
G1 X91.841 Y120.402 E0.15614
G1 X90.188 Y119.478 E0.17832
G1 X82.561 Y113.642 E0.90392
G1 X80.978 Y111.907 E0.22109
G1 X80.907 Y111.793 E0.01261
G1 X79.974 Y109.318 E0.24900
G1 X79.055 Y103.592 E0.54585
G1 X78.996 Y103.121 E0.04476
G1 X78.684 Y99.558 E0.33666
G1 X78.787 Y97.677 E0.17727
G1 X79.510 Y94.070 E0.34635
G1 X79.653 Y93.494 E0.05576
G1 X80.299 Y91.308 E0.21461
G1 X81.767 Y88.709 E0.28100
G1 X87.666 Y82.410 E0.81233
G1 E-2.00000 F1800.00000
G1 X101.320 Y109.097 F7800.000
G1 E2.00000 F1800.00000
G1 X100.563 Y108.537 E0.08861 F840.000
G1 X100.660 Y107.092 E0.13638
G1 X100.995 Y107.076 E0.03150
G1 X101.311 Y109.045 E0.18775
G1 E-2.00000 F1800.00000
G1 X89.488 Y106.158 F7800.000
G1 E2.00000 F1800.00000
G1 X88.305 Y107.011 E0.13728 F840.000
G1 X88.442 Y106.238 E0.07391
G1 X89.323 Y105.866 E0.09003
G1 X89.462 Y106.112 E0.02658
G1 X90.752 Y95.898 F7800.000
G1 X90.363 Y95.772 E0.03850 F840.000
G1 X90.396 Y95.265 E0.04781
G1 X90.895 Y95.607 E0.05692
G1 X90.775 Y95.851 E0.02562
G1 X91.534 Y96.152 F7800.000
G1 X91.199 Y96.043 E0.03315 F840.000
G1 X92.971 Y95.349 E0.17910
G1 X94.238 Y96.495 E0.16089
G1 X94.401 Y96.433 E0.01641
G1 X94.799 Y96.777 E0.04951
G1 X96.214 Y97.730 E0.16053
G1 X98.136 Y95.782 E0.25760
G1 X94.152 Y90.035 E0.65827
G1 X94.376 Y89.525 E0.05240
G1 X94.054 Y89.014 E0.05686
G1 X95.714 Y89.182 E0.15705
G1 X96.122 Y88.591 E0.06761
G1 X96.443 Y88.608 E0.03027
G1 X97.702 Y87.717 E0.14512
G1 X97.728 Y88.015 E0.02812
G1 X98.658 Y88.146 E0.08835
G1 X98.841 Y88.329 E0.02440
G1 X98.785 Y90.702 E0.22348
G1 X99.664 Y90.982 E0.08683
G1 X100.284 Y91.543 E0.07871
G1 X99.762 Y93.911 E0.22825
G1 X102.779 Y94.745 E0.29464
G1 X103.483 Y92.636 E0.20930
G1 X104.538 Y93.276 E0.11615
G1 X105.615 Y94.870 E0.18109
G1 X106.818 Y93.407 E0.17835
G1 X107.631 Y93.697 E0.08122
G1 X107.025 Y94.126 E0.06986
G1 X107.111 Y94.252 E0.01435
G1 X106.568 Y94.578 E0.05970
G1 X106.212 Y98.648 E0.38452
G1 X108.483 Y97.764 E0.22935
G1 X108.790 Y98.520 E0.07675
G1 X110.343 Y98.019 E0.15356
G1 X110.980 Y98.483 E0.07424
G1 X109.411 Y100.674 E0.25371
G1 X106.194 Y100.184 E0.30633
G1 X105.955 Y101.208 E0.09898
G1 X103.890 Y100.341 E0.21081
G1 X105.148 Y104.248 E0.38637
G1 X102.911 Y104.767 E0.21613
G1 X103.795 Y105.724 E0.12260
G1 X102.761 Y107.205 E0.16999
G1 X100.748 Y106.716 E0.19498
G1 X96.925 Y107.232 E0.36312
G1 X96.755 Y107.937 E0.06827
G1 X95.453 Y108.054 E0.12305
G1 X94.683 Y106.408 E0.17109
G1 X96.083 Y105.102 E0.18028
G1 X92.238 Y104.212 E0.37151
G1 X91.907 Y104.462 E0.03900
G1 X91.843 Y104.458 E0.00605
G1 X90.654 Y105.316 E0.13797
G1 X90.334 Y104.086 E0.11963
G1 X90.593 Y102.968 E0.10801
G1 X90.984 Y102.894 E0.03744
G1 X90.972 Y102.522 E0.03501
G1 X91.268 Y102.475 E0.02814
G1 X90.931 Y99.359 E0.29497
G1 X90.625 Y99.377 E0.02879
G1 X90.564 Y98.919 E0.04346
G1 X89.751 Y98.900 E0.07655
G1 X89.163 Y97.705 E0.12538
G1 X89.685 Y97.363 E0.05875
G1 X90.244 Y97.588 E0.05672
G1 X90.285 Y96.970 E0.05828
G1 X91.490 Y96.180 E0.13569
G1 X90.101 Y96.344 F7800.000
G1 X89.708 Y96.217 E0.03886 F840.000
G1 X89.845 Y94.131 E0.19679
G1 X91.491 Y95.257 E0.18782
G1 X93.103 Y94.626 E0.16294
G1 X94.374 Y95.775 E0.16129
G1 X94.528 Y95.717 E0.01551
G1 X95.179 Y96.280 E0.08110
G1 X96.133 Y96.922 E0.10820
G1 X97.327 Y95.712 E0.16002
G1 X93.439 Y90.104 E0.64238
G1 X93.670 Y89.578 E0.05408
G1 X93.332 Y89.041 E0.05966
G1 X93.736 Y88.354 E0.07503
G1 X95.409 Y88.523 E0.15833
G1 X95.727 Y88.063 E0.05258
G1 X95.900 Y87.953 E0.01931
G1 X96.259 Y87.972 E0.03388
G1 X97.402 Y87.163 E0.13178
G1 X97.211 Y86.243 E0.08847
G1 X97.578 Y86.030 E0.03991
G1 X98.068 Y85.990 E0.04624
G1 X98.188 Y86.142 E0.01824
G1 X98.306 Y87.465 E0.12507
G1 X98.951 Y87.556 E0.06127
G1 X99.472 Y88.075 E0.06925
G1 X99.421 Y90.249 E0.20465
G1 X99.983 Y90.427 E0.05553
G1 X100.972 Y91.324 E0.12563
G1 X100.500 Y93.467 E0.20658
G1 X102.374 Y93.985 E0.18303
G1 X104.226 Y88.437 E0.55059
G1 X104.378 Y88.376 E0.01539
G1 X104.633 Y88.325 E0.02441
G1 X104.798 Y88.684 E0.03716
G1 X104.483 Y89.335 E0.06809
G1 X105.234 Y89.658 E0.07693
G1 X103.798 Y92.096 E0.26640
G1 X104.979 Y92.813 E0.13005
G1 X105.664 Y93.827 E0.11518
G1 X106.615 Y92.671 E0.14090
G1 X107.965 Y93.152 E0.13490
G1 X108.198 Y93.322 E0.02715
G1 X108.291 Y93.487 E0.01782
G1 X108.374 Y93.937 E0.04306
G1 X107.888 Y94.281 E0.05604
G1 X108.001 Y94.447 E0.01888
G1 X107.162 Y94.950 E0.09204
G1 X106.922 Y97.701 E0.25995
G1 X108.830 Y96.959 E0.19271
G1 X109.150 Y97.747 E0.08007
G1 X110.453 Y97.327 E0.12884
G1 X111.850 Y98.342 E0.16253
G1 X110.277 Y100.539 E0.25435
G1 X112.600 Y100.541 E0.21870
G1 X112.705 Y100.900 E0.03516
G1 X112.379 Y101.650 E0.07703
G1 X110.818 Y101.546 E0.14719
G1 X110.204 Y101.427 E0.05886
G1 X106.671 Y100.889 E0.33640
G1 X106.395 Y102.071 E0.11425
G1 X104.902 Y101.444 E0.15249
G1 X105.951 Y104.704 E0.32236
G1 X104.100 Y105.133 E0.17889
G1 X106.863 Y108.125 E0.38338
G1 X106.487 Y109.384 E0.12361
G1 X105.721 Y109.354 E0.07217
G1 X104.029 Y106.480 E0.31399
G1 X103.029 Y107.913 E0.16453
G1 X101.711 Y107.593 E0.12768
G1 X102.066 Y109.805 E0.21095
G1 X102.922 Y112.634 E0.27816
G1 X102.335 Y113.282 E0.08238
G1 X102.463 Y113.851 E0.05489
G1 X102.233 Y114.165 E0.03666
G1 X101.916 Y113.949 E0.03606
G1 X101.433 Y109.959 E0.37832
G1 X99.917 Y108.836 E0.17765
G1 X100.010 Y107.446 E0.13115
G1 X97.432 Y107.794 E0.24484
G1 X96.269 Y112.626 E0.46788
G1 X96.191 Y112.675 E0.00860
G1 X96.132 Y112.924 E0.02415
G1 X95.817 Y113.063 E0.03238
G1 X95.469 Y112.432 E0.06782
G1 X95.198 Y112.593 E0.02965
G1 X94.993 Y112.409 E0.02592
G1 X96.743 Y108.565 E0.39752
G1 X95.073 Y108.716 E0.15778
G1 X93.924 Y106.262 E0.25513
G1 X94.798 Y105.446 E0.11255
G1 X92.382 Y104.887 E0.23347
G1 X92.102 Y105.098 E0.03296
G1 X92.030 Y105.094 E0.00681
G1 X88.161 Y107.885 E0.44907
G1 X87.546 Y107.706 E0.06028
G1 X87.886 Y105.794 E0.18276
G1 X89.911 Y104.939 E0.20682
G1 X89.690 Y104.095 E0.08215
G1 X90.076 Y102.430 E0.16085
G1 X90.343 Y102.380 E0.02559
G1 X90.332 Y101.992 E0.03646
G1 X90.583 Y101.952 E0.02393
G1 X90.373 Y100.017 E0.18324
G1 X90.082 Y100.033 E0.02743
G1 X90.016 Y99.531 E0.04764
G1 X87.816 Y99.481 E0.20713
G1 X87.656 Y98.767 E0.06878
G1 X89.077 Y98.944 E0.13472
G1 X88.358 Y97.485 E0.15309
G1 X89.616 Y96.662 E0.14151
G1 X89.677 Y96.686 E0.00622
G1 X89.681 Y96.619 E0.00639
G1 X90.057 Y96.373 E0.04222
G1 X93.355 Y106.792 F7800.000
G1 X93.611 Y107.029 E0.03285 F840.000
G1 X91.841 Y109.233 E0.26607
G1 X91.349 Y109.205 E0.04644
G1 X91.288 Y108.720 E0.04598
G1 X93.317 Y106.828 E0.26117
G1 X93.513 Y105.790 F7800.000
G1 X92.526 Y105.561 E0.09544 F588.000
G1 X92.298 Y105.734 E0.02691
G1 X92.217 Y105.730 E0.00756
G1 X88.279 Y108.570 E0.45707
G1 X86.981 Y108.192 E0.12729
G1 X86.838 Y108.117 E0.01515
G1 X87.157 Y106.329 E0.17099
G1 X86.781 Y106.228 E0.03658
G1 X87.142 Y105.430 E0.08242
G1 X89.170 Y104.574 E0.20713
G1 X89.047 Y104.104 E0.04575
G1 X89.257 Y103.196 E0.08774
G1 X86.330 Y103.992 E0.28558
G1 X86.168 Y103.880 E0.01850
G1 X85.956 Y102.575 E0.12442
G1 X89.703 Y101.865 E0.35896
G1 X89.691 Y101.462 E0.03791
G1 X89.898 Y101.429 E0.01972
G1 X89.816 Y100.674 E0.07150
G1 X89.539 Y100.689 E0.02606
G1 X89.467 Y100.144 E0.05182
G1 X87.312 Y100.094 E0.20285
G1 X87.163 Y99.426 E0.06443
G1 X86.592 Y99.400 E0.05384
G1 X85.845 Y98.923 E0.08340
G1 X86.773 Y98.028 E0.12137
G1 X88.004 Y98.181 E0.11677
G1 X87.587 Y97.334 E0.08886
G1 X87.724 Y97.154 E0.02132
G1 X88.667 Y96.536 E0.10607
G1 X86.808 Y95.934 E0.18387
G1 X86.330 Y95.226 E0.08042
G1 X87.148 Y94.994 E0.07999
G1 X89.110 Y95.784 E0.19909
G1 X89.187 Y94.612 E0.11060
G1 X87.299 Y93.651 E0.19938
G1 X87.078 Y93.238 E0.04412
G1 X87.502 Y92.775 E0.05907
G1 X87.794 Y92.758 E0.02759
G1 X88.707 Y93.320 E0.10086
G1 X88.827 Y92.677 E0.06162
G1 X91.571 Y94.555 E0.31299
G1 X92.458 Y94.207 E0.08965
G1 X89.827 Y92.129 E0.31560
G1 X89.711 Y91.653 E0.04616
G1 X89.699 Y91.318 E0.03147
G1 X90.485 Y91.377 E0.07425
G1 X92.878 Y93.656 E0.31101
G1 X92.957 Y93.651 E0.00747
G1 X94.509 Y95.055 E0.19700
G1 X94.654 Y95.000 E0.01461
G1 X95.560 Y95.783 E0.11268
G1 X96.052 Y96.115 E0.05588
G1 X96.518 Y95.642 E0.06244
G1 X92.727 Y90.172 E0.62649
G1 X92.965 Y89.630 E0.05576
G1 X92.601 Y89.053 E0.06421
G1 X93.323 Y87.822 E0.13429
G1 X93.554 Y87.707 E0.02426
G1 X95.105 Y87.864 E0.14673
G1 X95.284 Y87.604 E0.02976
G1 X95.733 Y87.319 E0.05006
G1 X96.075 Y87.337 E0.03226
G1 X96.707 Y86.890 E0.07284
G1 X96.523 Y85.999 E0.08561
G1 X96.716 Y85.808 E0.02558
G1 X97.386 Y85.419 E0.07296
G1 X98.037 Y85.365 E0.06145
G1 X98.185 Y85.133 E0.02596
G1 X98.568 Y85.615 E0.05792
G1 X98.775 Y85.687 E0.02063
G1 X98.885 Y86.915 E0.11611
G1 X99.244 Y86.966 E0.03420
G1 X100.103 Y87.822 E0.11411
G1 X100.057 Y89.795 E0.18582
G1 X100.302 Y89.873 E0.02424
G1 X100.882 Y90.399 E0.07367
G1 X101.025 Y89.125 E0.12062
G1 X101.739 Y89.840 E0.09514
G1 X101.607 Y90.682 E0.08023
G1 X101.716 Y90.851 E0.01896
G1 X101.237 Y93.022 E0.20930
G1 X101.969 Y93.225 E0.07142
G1 X103.725 Y87.963 E0.52212
G1 X104.200 Y87.774 E0.04809
G1 X104.884 Y87.638 E0.06564
G1 X105.160 Y87.977 E0.04116
G1 X105.489 Y88.690 E0.07388
G1 X105.330 Y89.019 E0.03438
G1 X105.767 Y89.206 E0.04471
G1 X105.960 Y89.658 E0.04623
G1 X104.649 Y91.882 E0.24298
G1 X105.420 Y92.350 E0.08487
G1 X105.713 Y92.783 E0.04926
G1 X108.874 Y88.941 E0.46835
G1 X109.409 Y89.140 E0.05378
G1 X109.531 Y89.620 E0.04659
G1 X107.272 Y92.242 E0.32573
G1 X108.260 Y92.594 E0.09874
G1 X108.675 Y92.897 E0.04833
G1 X108.887 Y93.270 E0.04043
G1 X109.060 Y94.216 E0.09054
G1 X108.750 Y94.436 E0.03577
G1 X108.890 Y94.641 E0.02340
G1 X107.757 Y95.322 E0.12438
G1 X107.632 Y96.754 E0.13538
G1 X109.177 Y96.153 E0.15608
G1 X109.511 Y96.974 E0.08340
G1 X112.949 Y95.865 E0.34008
G1 X113.899 Y96.194 E0.09458
G1 X113.254 Y96.965 E0.09461
G1 X111.560 Y97.359 E0.16374
G1 X112.254 Y97.864 E0.08079
G1 X112.675 Y98.264 E0.05463
G1 X111.492 Y99.915 E0.19124
G1 X112.994 Y99.917 E0.14135
G1 X113.115 Y100.079 E0.01910
G1 X113.369 Y100.941 E0.08459
G1 X113.209 Y101.309 E0.03772
G1 X113.821 Y101.387 E0.05809
G1 X113.842 Y102.053 E0.06272
G1 X113.694 Y102.364 E0.03236
G1 X111.090 Y102.190 E0.24567
G1 X111.092 Y102.235 E0.00422
G1 X110.098 Y102.043 E0.09527
G1 X107.148 Y101.594 E0.28085
G1 X106.980 Y102.314 E0.06961
G1 X107.073 Y102.344 E0.00919
G1 X107.074 Y102.394 E0.00472
G1 X109.364 Y103.071 E0.22481
G1 X111.607 Y103.770 E0.22114
G1 X112.142 Y104.517 E0.08648
G1 X111.254 Y104.759 E0.08661
G1 X109.394 Y104.009 E0.18877
G1 X105.913 Y102.546 E0.35543
G1 X106.392 Y104.034 E0.14709
G1 X109.852 Y106.050 E0.37697
G1 X109.909 Y106.233 E0.01809
G1 X111.966 Y107.488 E0.22676
G1 X112.313 Y108.581 E0.10794
G1 X111.170 Y108.664 E0.10784
G1 X109.171 Y107.168 E0.23495
G1 X109.097 Y107.174 E0.00699
G1 X106.501 Y105.181 E0.30812
G1 X106.351 Y105.252 E0.01560
G1 X105.288 Y105.499 E0.10276
G1 X108.668 Y109.160 E0.46903
G1 X108.639 Y109.325 E0.01581
G1 X108.357 Y109.616 E0.03820
G1 X108.111 Y109.655 E0.02342
G1 X107.312 Y108.807 E0.10975
G1 X106.948 Y110.026 E0.11981
G1 X105.356 Y109.966 E0.14994
G1 X103.984 Y107.635 E0.25454
G1 X103.430 Y108.430 E0.09120
G1 X103.044 Y108.560 E0.03832
G1 X102.477 Y108.422 E0.05492
G1 X102.677 Y109.665 E0.11848
G1 X103.600 Y112.718 E0.30028
G1 X103.506 Y112.921 E0.02107
G1 X103.016 Y113.461 E0.06866
G1 X103.136 Y113.991 E0.05116
G1 X102.476 Y114.889 E0.10484
G1 X102.370 Y114.952 E0.01170
G1 X102.236 Y114.924 E0.01284
G1 X101.330 Y114.306 E0.10325
G1 X100.845 Y110.301 E0.37968
G1 X99.911 Y109.609 E0.10947
G1 X99.964 Y112.177 E0.24179
G1 X99.734 Y112.465 E0.03465
G1 X99.285 Y112.455 E0.04226
G1 X99.067 Y112.156 E0.03478
G1 X99.335 Y108.168 E0.37632
G1 X97.940 Y108.356 E0.13254
G1 X96.817 Y113.021 E0.45172
G1 X96.739 Y113.070 E0.00857
G1 X96.672 Y113.352 E0.02731
G1 X96.547 Y113.424 E0.01361
G1 X95.546 Y113.865 E0.10296
G1 X95.233 Y113.299 E0.06087
G1 X94.445 Y113.767 E0.08636
G1 X94.145 Y112.764 E0.09854
G1 X95.729 Y109.284 E0.35992
G1 X94.693 Y109.378 E0.09789
G1 X93.895 Y107.674 E0.17713
G1 X92.147 Y109.851 E0.26283
G1 X91.702 Y109.862 E0.04188
G1 X90.810 Y109.787 E0.08425
G1 X90.674 Y108.945 E0.08025
G1 X90.650 Y108.461 E0.04562
G1 X93.475 Y105.826 E0.36365
G1 X93.658 Y105.471 F7800.000
G1 E-2.00000 F1800.00000
G1 X102.209 Y86.518 F7800.000
G1 E2.00000 F1800.00000
G1 X101.673 Y89.279 E0.26468 F588.000
G1 E-2.00000 F1800.00000
G1 X109.513 Y96.050 F7800.000
G1 E2.00000 F1800.00000
G1 X111.345 Y95.463 E0.18108 F588.000
G1 X111.803 Y96.775 F7800.000
G1 X110.661 Y97.091 E0.11161 F480.000
G1 X111.803 Y96.775 F7800.000
G1 X112.943 Y96.459 E0.23607 F480.000
G1 X113.204 Y96.284 E0.06273
G1 X110.382 Y98.759 F7800.000
G1 X110.086 Y98.464 E0.03985 F1080.000
G1 X109.409 Y98.682 E0.06790
G1 X110.008 Y99.281 E0.08082
G1 X109.634 Y99.803 E0.06126
G1 X108.732 Y98.900 E0.12179
G1 X107.462 Y98.526 E0.12634
G1 X109.168 Y100.233 E0.23031
G1 X108.112 Y100.072 E0.10199
G1 X106.817 Y98.777 E0.17474
G1 X106.172 Y99.028 E0.06602
G1 X107.055 Y99.911 E0.11917
G1 X105.998 Y99.750 E0.10199
G1 X100.912 Y94.663 E0.68632
G1 X99.674 Y94.321 E0.12253
G1 X105.777 Y100.424 E0.82348
G1 X104.632 Y100.175 E0.11180
G1 X95.279 Y90.822 E1.26204
G1 X95.833 Y89.585 F7800.000
G1 X99.537 Y93.289 E0.49984 F1080.000
G1 X99.375 Y94.023 E0.07171
G1 X94.841 Y89.488 E0.61188
G1 X96.199 Y89.055 F7800.000
G1 X99.699 Y92.555 E0.47231 F1080.000
G1 X98.417 Y90.377 F7800.000
G1 X96.797 Y88.757 E0.21864 F1080.000
G1 X97.321 Y88.386 E0.06131
G1 X98.438 Y89.502 E0.15065
G1 X97.302 Y93.741 F7800.000
G1 X103.225 Y99.664 E0.79923 F1080.000
G1 X103.650 Y100.985 E0.13241
G1 X98.520 Y95.854 E0.69232
G1 X98.075 Y96.305 E0.06044
G1 X104.076 Y102.306 E0.80973
G1 X104.501 Y103.627 E0.13241
G1 X97.630 Y96.756 E0.92714
G1 X97.185 Y97.207 E0.06044
G1 X104.106 Y104.128 E0.93395
G1 X103.379 Y104.297 E0.07122
G1 X96.740 Y97.658 E0.89587
G1 X96.295 Y98.109 E0.06044
G1 X102.652 Y104.466 E0.85779
G1 X103.239 Y105.949 F7800.000
G1 X94.257 Y96.967 E1.21199 F1080.000
G1 X92.383 Y95.988 F7800.000
G1 X102.871 Y106.476 E1.41527 F1080.000
G1 X102.123 Y106.624 E0.07274
G1 X91.841 Y96.342 E1.38738
G1 X91.300 Y96.697 E0.06173
G1 X100.940 Y106.337 E1.30076
G1 X100.140 Y106.433 E0.07688
G1 X90.759 Y97.051 E1.26583
G1 X90.602 Y97.790 E0.07205
G1 X99.351 Y106.539 E1.18054
G1 X98.562 Y106.646 E0.07599
G1 X91.333 Y99.417 E0.97540
G1 X91.441 Y100.421 E0.09639
G1 X95.584 Y104.564 E0.55894
G1 X96.332 Y105.312 F7800.000
G1 X97.772 Y106.752 E0.19430 F1080.000
G1 X96.983 Y106.859 E0.07599
G1 X95.869 Y105.744 E0.15034
G1 X95.405 Y106.177 E0.06047
G1 X96.544 Y107.315 E0.15359
G1 X95.972 Y107.639 E0.06271
G1 X95.560 Y107.227 E0.05561
G1 X94.418 Y104.294 F7800.000
G1 X91.550 Y101.426 E0.38701 F1080.000
G1 X91.659 Y102.430 E0.09639
G1 X93.253 Y104.024 E0.21508
G1 X92.180 Y103.847 E0.10370
G1 X91.371 Y103.038 E0.10926
G1 X90.851 Y103.414 E0.06120
G1 X91.640 Y104.203 E0.10647
G1 X91.120 Y104.578 E0.06122
G1 X90.812 Y104.271 E0.04148
G1 X90.451 Y98.535 F7800.000
