; generated by Slic3r 1.2.9 on 2016-01-07 at 16:34:07

; external perimeters extrusion width = 0.35mm
; perimeters extrusion width = 0.39mm
; infill extrusion width = 0.39mm
; solid infill extrusion width = 0.39mm
; top infill extrusion width = 0.39mm

M190 S80 ; set bed temperature
M109 S230
G28 ; home all axes
G92 E0  ;reset extruder
G21 ; set units to millimeters
G90 ; use absolute coordinates
M83 ; use relative distances for extrusion
G1 E-2.00000 F1800.00000
G1 Z0.350 F7800.000
G1 X86.427 Y84.139 F7800.000
G1 E2.00000 F1800.00000
G1 X87.840 Y83.334 E0.15302 F1440.000
G1 X99.211 Y78.593 E1.15964
G1 X101.448 Y78.090 E0.21588
G1 X104.249 Y78.568 E0.26743
G1 X108.714 Y80.378 E0.45350 F1440.000
G1 X110.612 Y81.553 E0.21017
G1 X117.708 Y87.824 E0.89136
G1 X118.399 Y88.525 E0.09265
G1 X119.633 Y90.458 E0.21588
G1 X120.098 Y92.259 E0.17510
G1 X120.827 Y98.735 E0.61337
G1 X120.839 Y100.103 E0.12885
G1 X119.984 Y109.080 E0.84876
G1 X119.777 Y110.216 E0.10871
G1 X118.839 Y112.309 E0.21588
G1 X117.715 Y113.581 E0.15981
G1 X117.242 Y113.973 E0.05778
G1 X110.768 Y118.871 E0.76419
G1 X110.031 Y119.355 E0.08295
G1 X108.931 Y119.977 E0.11897
G1 X108.131 Y120.362 E0.08353
G1 X107.855 Y120.472 E0.02801
G1 X106.183 Y120.899 E0.16245
G1 X98.298 Y121.845 E0.74746
G1 X96.008 Y121.720 E0.21588
G1 X94.122 Y120.960 E0.19139
G1 X93.376 Y120.514 E0.08181
G1 X84.033 Y114.603 E1.04069
G1 X82.110 Y112.750 E0.25142
G1 X81.954 Y112.522 E0.02599
G1 X80.855 Y109.678 E0.28696
G1 X79.816 Y102.111 E0.71899
G1 X79.225 Y97.215 E0.46416
G1 X79.348 Y94.925 E0.21588
G1 X80.267 Y92.781 E0.21954
G1 X84.854 Y85.808 E0.78570
G1 X86.391 Y84.177 E0.21094
G1 E-2.00000 F1800.00000
G1 X104.606 Y111.755 F7800.000
G1 E2.00000 F1800.00000
G1 X104.202 Y111.955 E0.04251 F840.000
G1 X104.062 Y111.373 E0.05632
G1 X104.384 Y111.263 E0.03213
G1 X104.585 Y111.707 E0.04585
G1 E-2.00000 F1800.00000
G1 X99.437 Y108.861 F7800.000
G1 E2.00000 F1800.00000
G1 X98.921 Y109.203 E0.05831 F840.000
G1 X99.103 Y108.543 E0.06447
G1 X99.418 Y108.575 E0.02980
G1 X99.434 Y108.809 E0.02207
G1 X99.261 Y106.241 F7800.000
G1 X99.300 Y106.816 E0.05424 F840.000
G1 X97.208 Y107.324 E0.20258
G1 X96.413 Y106.186 E0.13073
G1 X96.836 Y105.728 E0.05858
G1 X96.417 Y104.891 E0.08811
G1 X96.148 Y101.972 E0.27600
G1 X95.507 Y102.526 E0.07973
G1 X94.913 Y100.159 E0.22969
G1 X93.411 Y100.447 E0.14397
G1 X93.433 Y100.379 E0.00671
G1 X90.013 Y101.039 E0.32789
G1 X90.050 Y98.540 E0.23531
G1 X92.062 Y99.188 E0.19893
G1 X92.583 Y98.142 E0.11000
G1 X95.255 Y96.452 E0.29766
G1 X94.566 Y96.081 E0.07374
G1 X95.756 Y93.600 E0.25897
G1 X96.430 Y93.240 E0.07194
G1 X97.225 Y95.550 E0.22996
G1 X100.222 Y94.711 E0.29291
G1 X99.537 Y91.570 E0.30252
G1 X99.986 Y91.139 E0.05861
G1 X101.053 Y91.740 E0.11527
G1 X100.984 Y88.797 E0.27710
G1 X102.178 Y88.629 E0.11350
G1 X102.245 Y87.676 E0.08990
G1 X102.697 Y87.996 E0.05206
G1 X103.280 Y88.972 E0.10708
G1 X103.849 Y88.883 E0.05429
G1 X104.527 Y89.449 E0.08308
G1 X105.847 Y89.175 E0.12689
G1 X105.508 Y89.713 E0.05983
G1 X105.761 Y90.301 E0.06029
G1 X100.889 Y97.290 E0.80188
G1 X103.067 Y99.238 E0.27509
G1 X104.512 Y97.971 E0.18089
G1 X106.948 Y95.633 E0.31782
G1 X108.176 Y96.073 E0.12282
G1 X108.172 Y96.341 E0.02526
G1 X107.987 Y96.402 E0.01836
G1 X109.212 Y97.081 E0.13185
G1 X109.614 Y97.974 E0.09220
G1 X110.314 Y97.692 E0.07104
G1 X110.720 Y97.917 E0.04369
G1 X110.157 Y98.722 E0.09249
G1 X108.473 Y98.877 E0.15925
G1 X108.997 Y99.936 E0.11123
G1 X107.681 Y99.824 E0.12439
G1 X107.255 Y102.930 E0.29505
G1 X109.203 Y103.299 E0.18657
G1 X109.372 Y104.032 E0.07088
G1 X108.995 Y105.481 E0.14089
G1 X107.544 Y104.434 E0.16843
G1 X103.654 Y105.333 E0.37580
G1 X105.151 Y106.730 E0.19269
G1 X104.459 Y108.207 E0.15355
G1 X104.258 Y108.516 E0.03471
G1 X103.510 Y109.082 E0.08830
G1 X103.188 Y107.746 E0.12936
G1 X101.889 Y107.570 E0.12341
G1 X99.308 Y106.265 E0.27221
G1 X99.958 Y107.294 F7800.000
G1 X100.085 Y109.182 E0.17806 F840.000
G1 X98.118 Y110.483 E0.22201
G1 X98.270 Y110.513 E0.01459
G1 X97.905 Y113.531 E0.28615
G1 X97.270 Y112.830 E0.08906
G1 X98.715 Y107.601 E0.51060
G1 X97.150 Y107.982 E0.15162
G1 X96.830 Y107.874 E0.03172
G1 X95.909 Y106.555 E0.15151
G1 X94.121 Y109.593 E0.33188
G1 X93.435 Y109.622 E0.06462
G1 X93.234 Y108.947 E0.06621
G1 X95.056 Y106.857 E0.26105
G1 X95.128 Y106.656 E0.02007
G1 X96.084 Y105.622 E0.13254
G1 X95.805 Y105.066 E0.05852
G1 X95.637 Y103.239 E0.17267
G1 X94.683 Y104.064 E0.11866
G1 X94.446 Y103.907 E0.02676
G1 X94.875 Y102.575 E0.13173
G1 X94.451 Y100.884 E0.16409
G1 X92.493 Y101.259 E0.18771
G1 X92.514 Y101.193 E0.00656
G1 X89.041 Y101.863 E0.33294
G1 X89.068 Y100.987 E0.08251
G1 X89.389 Y100.975 E0.03025
G1 X89.418 Y99.034 E0.18269
G1 X88.246 Y98.952 E0.11056
G1 X88.008 Y98.622 E0.03837
G1 X89.339 Y97.654 E0.15494
G1 X91.742 Y98.429 E0.23765
G1 X92.101 Y97.707 E0.07584
G1 X94.018 Y96.495 E0.21344
G1 X92.815 Y95.848 E0.12858
G1 X92.804 Y95.723 E0.01180
G1 X92.890 Y95.076 E0.06144
G1 X91.535 Y94.263 E0.14879
G1 X91.860 Y93.690 E0.06196
G1 X92.072 Y93.535 E0.02469
G1 X94.165 Y95.471 E0.26836
G1 X95.067 Y93.593 E0.19609
G1 X94.861 Y93.353 E0.02971
G1 X95.320 Y93.074 E0.05063
G1 X95.452 Y93.054 E0.01253
G1 X96.782 Y92.342 E0.14200
G1 X97.624 Y94.789 E0.24355
G1 X99.486 Y94.268 E0.18196
G1 X98.853 Y91.362 E0.27993
G1 X99.450 Y90.787 E0.07807
G1 X99.378 Y90.078 E0.06706
G1 X100.402 Y90.656 E0.11069
G1 X100.346 Y88.256 E0.22595
G1 X101.590 Y88.081 E0.11828
G1 X101.703 Y86.481 E0.15096
G1 X102.429 Y86.541 E0.06854
G1 X102.349 Y86.984 E0.04241
G1 X103.165 Y87.562 E0.09418
G1 X103.600 Y88.290 E0.07978
G1 X104.032 Y88.222 E0.04122
G1 X104.696 Y88.775 E0.08134
G1 X106.220 Y88.459 E0.14658
G1 X106.554 Y89.225 E0.07860
G1 X106.212 Y89.768 E0.06043
G1 X106.472 Y90.374 E0.06206
G1 X101.718 Y97.193 E0.78246
G1 X103.071 Y98.404 E0.17089
G1 X104.089 Y97.511 E0.12747
G1 X106.794 Y94.915 E0.35291
G1 X108.552 Y95.544 E0.17569
G1 X109.051 Y95.202 E0.05696
G1 X109.645 Y96.521 E0.13618
G1 X109.548 Y96.553 E0.00961
G1 X109.696 Y96.635 E0.01597
G1 X109.937 Y97.170 E0.05524
G1 X110.357 Y97.001 E0.04257
G1 X111.630 Y97.706 E0.13698
G1 X110.503 Y99.318 E0.18505
G1 X109.437 Y99.416 E0.10080
G1 X110.050 Y100.653 E0.12994
G1 X108.219 Y100.497 E0.17297
G1 X107.955 Y102.426 E0.18329
G1 X109.350 Y102.691 E0.13368
G1 X109.756 Y102.917 E0.04371
G1 X110.016 Y104.041 E0.10860
G1 X109.676 Y105.346 E0.12696
G1 X111.959 Y106.338 E0.23434
G1 X111.660 Y106.964 E0.06530
G1 X112.256 Y107.278 E0.06344
G1 X112.353 Y107.977 E0.06640
G1 X111.689 Y108.194 E0.06576
G1 X107.408 Y105.107 E0.49680
G1 X104.939 Y105.678 E0.23855
G1 X105.910 Y106.583 E0.12493
G1 X105.007 Y108.511 E0.20040
G1 X104.723 Y108.949 E0.04912
G1 X104.203 Y109.341 E0.06126
G1 X105.424 Y112.047 E0.27945
G1 X104.679 Y112.416 E0.07819
G1 X104.721 Y112.509 E0.00963
G1 X103.945 Y113.187 E0.09696
G1 X103.876 Y112.915 E0.02639
G1 X103.775 Y112.852 E0.01127
G1 X102.681 Y108.308 E0.43996
G1 X101.701 Y108.175 E0.09307
G1 X100.005 Y107.318 E0.17885
G1 E-2.00000 F1800.00000
G1 X95.372 Y89.330 F7800.000
G1 E2.00000 F1800.00000
G1 X95.205 Y88.985 E0.03607 F840.000
G1 X95.501 Y88.621 E0.04411
G1 X95.699 Y89.195 E0.05714
G1 X95.420 Y89.310 E0.02832
G1 X95.924 Y89.850 F7800.000
G1 X96.593 Y91.793 E0.19350 F840.000
G1 X96.278 Y91.933 E0.03243
G1 X95.289 Y90.123 E0.19416
G1 X95.876 Y89.870 E0.06015
G1 E-2.00000 F1800.00000
G1 X107.282 Y107.863 F7800.000
G1 E2.00000 F1800.00000
G1 X108.535 Y109.032 E0.16128 F840.000
G1 X108.515 Y109.446 E0.03906
G1 X108.099 Y109.436 E0.03916
G1 X107.026 Y108.101 E0.16124
G1 X107.243 Y107.899 E0.02790
G1 X106.013 Y107.836 F7800.000
G1 X105.554 Y108.815 E0.10172 F588.000
G1 X105.187 Y109.381 E0.06353
G1 X104.978 Y109.539 E0.02464
G1 X106.241 Y112.340 E0.28920
G1 X105.495 Y112.709 E0.07837
G1 X105.651 Y113.058 E0.03594
G1 X105.393 Y113.916 E0.08430
G1 X104.595 Y113.449 E0.08702
G1 X104.238 Y113.760 E0.04462
G1 X103.916 Y113.773 E0.03034
G1 X103.390 Y113.541 E0.05410
G1 X103.332 Y113.312 E0.02218
G1 X103.227 Y113.247 E0.01168
G1 X102.173 Y108.870 E0.42380
G1 X101.513 Y108.781 E0.06274
G1 X100.655 Y108.347 E0.09043
G1 X100.928 Y112.403 E0.38262
G1 X100.383 Y113.150 E0.08712
G1 X99.804 Y112.429 E0.08707
G1 X99.852 Y110.085 E0.22068
G1 X98.873 Y110.733 E0.11053
G1 X98.411 Y114.552 E0.36210
G1 X98.061 Y114.790 E0.03986
G1 X97.570 Y114.896 E0.04725
G1 X97.158 Y114.651 E0.04515
G1 X96.891 Y114.287 E0.04248
G1 X97.062 Y113.531 E0.07293
G1 X96.576 Y112.995 E0.06817
G1 X97.829 Y108.460 E0.44288
G1 X97.122 Y108.632 E0.06854
G1 X96.436 Y108.401 E0.06811
G1 X95.954 Y107.710 E0.07929
G1 X94.487 Y110.203 E0.27229
G1 X93.514 Y110.244 E0.09158
G1 X93.029 Y110.179 E0.04615
G1 X92.854 Y109.862 E0.03402
G1 X92.537 Y108.796 E0.10468
G1 X94.508 Y106.535 E0.28240
G1 X94.583 Y106.325 E0.02095
G1 X95.331 Y105.515 E0.10379
G1 X95.194 Y105.240 E0.02894
G1 X95.126 Y104.507 E0.06935
G1 X94.098 Y105.395 E0.12791
G1 X93.712 Y105.306 E0.03729
G1 X90.839 Y107.512 E0.34099
G1 X90.611 Y107.426 E0.02288
G1 X88.673 Y108.876 E0.22780
G1 X88.276 Y108.847 E0.03748
G1 X87.777 Y108.699 E0.04903
G1 X87.821 Y108.198 E0.04739
G1 X87.947 Y107.802 E0.03911
G1 X90.020 Y106.538 E0.22850
G1 X90.043 Y106.260 E0.02624
G1 X93.720 Y104.125 E0.40018
G1 X94.225 Y102.553 E0.15543
G1 X93.989 Y101.609 E0.09166
G1 X91.574 Y102.072 E0.23144
G1 X91.595 Y102.007 E0.00641
G1 X88.393 Y102.625 E0.30698
G1 X88.419 Y101.775 E0.08010
G1 X87.056 Y101.887 E0.12867
G1 X86.751 Y101.186 E0.07198
G1 X86.969 Y100.445 E0.07275
G1 X88.773 Y100.374 E0.16995
G1 X88.784 Y99.616 E0.07129
G1 X87.911 Y99.555 E0.08241
G1 X87.137 Y98.483 E0.12454
G1 X88.398 Y97.566 E0.14677
G1 X86.641 Y97.157 E0.16983
G1 X86.279 Y96.731 E0.05260
G1 X86.185 Y96.460 E0.02692
G1 X86.904 Y96.212 E0.07155
G1 X91.422 Y97.669 E0.44689
G1 X91.718 Y97.075 E0.06244
G1 X91.848 Y97.128 E0.01323
G1 X92.780 Y96.539 E0.10377
G1 X92.222 Y96.238 E0.05968
G1 X92.176 Y95.709 E0.05002
G1 X92.217 Y95.401 E0.02928
G1 X91.150 Y94.760 E0.11714
G1 X90.866 Y94.174 E0.06123
G1 X91.383 Y93.264 E0.09849
G1 X92.009 Y92.808 E0.07292
G1 X92.151 Y92.757 E0.01419
G1 X93.968 Y94.437 E0.23297
G1 X94.326 Y93.691 E0.07796
G1 X94.110 Y93.439 E0.03126
G1 X94.523 Y92.827 E0.06950
G1 X95.103 Y92.475 E0.06384
G1 X95.252 Y92.453 E0.01417
G1 X95.715 Y92.205 E0.04941
G1 X94.411 Y89.819 E0.25591
G1 X94.828 Y89.640 E0.04274
G1 X94.470 Y88.898 E0.07755
G1 X94.990 Y88.259 E0.07761
G1 X95.324 Y88.150 E0.03307
G1 X96.050 Y88.295 E0.06962
G1 X98.023 Y94.028 E0.57077
G1 X98.750 Y93.825 E0.07100
G1 X98.168 Y91.154 E0.25734
G1 X98.798 Y90.548 E0.08229
G1 X98.673 Y89.331 E0.11516
G1 X98.908 Y89.096 E0.03123
G1 X99.752 Y89.572 E0.09116
G1 X99.716 Y88.069 E0.14146
G1 X100.132 Y87.655 E0.05524
G1 X101.002 Y87.532 E0.08273
G1 X101.113 Y85.969 E0.14753
G1 X101.703 Y85.226 E0.08929
G1 X102.020 Y85.880 E0.06840
G1 X102.534 Y85.922 E0.04849
G1 X103.115 Y86.260 E0.06330
G1 X103.035 Y86.704 E0.04246
G1 X103.634 Y87.128 E0.06915
G1 X103.920 Y87.607 E0.05247
G1 X104.215 Y87.560 E0.02815
G1 X104.864 Y88.102 E0.07959
G1 X105.672 Y87.935 E0.07761
G1 X105.691 Y87.889 E0.00466
G1 X106.565 Y87.801 E0.08269
G1 X106.665 Y87.971 E0.01856
G1 X106.718 Y87.965 E0.00502
G1 X106.757 Y88.127 E0.01570
G1 X107.259 Y89.278 E0.11821
G1 X106.915 Y89.823 E0.06065
G1 X107.183 Y90.447 E0.06383
G1 X102.547 Y97.096 E0.76303
G1 X103.075 Y97.569 E0.06668
G1 X103.666 Y97.050 E0.07405
G1 X109.358 Y91.589 E0.74250
G1 X110.328 Y91.490 E0.09172
G1 X110.106 Y92.456 E0.09323
G1 X107.490 Y94.500 E0.31249
G1 X108.462 Y94.848 E0.09714
G1 X111.070 Y93.063 E0.29750
G1 X111.667 Y93.017 E0.05638
G1 X111.672 Y93.044 E0.00257
G1 X113.052 Y93.123 E0.13007
G1 X112.603 Y93.962 E0.08950
G1 X110.451 Y95.057 E0.22727
G1 X110.473 Y95.402 E0.03254
G1 X109.945 Y95.666 E0.05559
G1 X110.261 Y96.366 E0.07231
G1 X112.866 Y95.317 E0.26440
G1 X113.147 Y96.043 E0.07332
G1 X111.109 Y96.704 E0.20159
G1 X112.539 Y97.496 E0.15387
G1 X111.388 Y99.143 E0.18908
G1 X113.165 Y98.921 E0.16853
G1 X113.682 Y99.420 E0.06758
G1 X113.296 Y99.666 E0.04310
G1 X112.426 Y99.705 E0.08193
G1 X112.412 Y99.770 E0.00620
G1 X110.402 Y99.955 E0.19003
G1 X110.728 Y100.613 E0.06920
G1 X110.703 Y100.798 E0.01753
G1 X110.324 Y101.303 E0.05950
G1 X108.758 Y101.170 E0.14794
G1 X108.655 Y101.923 E0.07152
G1 X109.566 Y102.096 E0.08736
G1 X111.586 Y103.224 E0.21777
G1 X111.461 Y103.531 E0.03123
G1 X110.477 Y103.264 E0.09592
G1 X110.659 Y104.050 E0.07597
G1 X110.415 Y104.986 E0.09108
G1 X112.627 Y105.947 E0.22700
G1 X112.730 Y106.175 E0.02351
G1 X112.483 Y106.691 E0.05393
G1 X112.818 Y106.868 E0.03561
G1 X112.919 Y107.437 E0.05440
G1 X113.030 Y108.395 E0.09082
G1 X112.215 Y108.692 E0.08166
G1 X111.571 Y108.880 E0.06318
G1 X107.273 Y105.779 E0.49882
G1 X106.224 Y106.022 E0.10130
G1 X109.173 Y108.773 E0.37961
G1 X109.109 Y110.086 E0.12375
G1 X107.793 Y110.054 E0.12389
G1 X106.046 Y107.877 E0.26275
G1 X105.722 Y107.642 F7800.000
G1 E-2.00000 F1800.00000
G1 X93.837 Y93.217 F7800.000
G1 E2.00000 F1800.00000
G1 X90.446 Y89.427 E0.47871 F588.000
G1 E-2.00000 F1800.00000
G1 X87.282 Y95.071 F7800.000
G1 E2.00000 F1800.00000
G1 X87.636 Y95.336 E0.04161 F588.000
G1 X91.421 Y96.886 E0.38499
G1 E-2.00000 F1800.00000
G1 X93.125 Y103.045 F7800.000
G1 E2.00000 F1800.00000
G1 X88.572 Y104.882 E0.46208 F840.000
G1 X88.188 Y104.778 E0.03748
G1 X88.054 Y104.664 E0.01656
G1 X88.089 Y104.485 E0.01718
G1 X88.316 Y104.166 E0.03687
G1 X93.004 Y102.706 E0.46211
G1 X93.107 Y102.996 E0.02894
G1 X92.779 Y102.992 F7800.000
G1 E-2.00000 F1800.00000
G1 X111.847 Y103.510 F7800.000
G1 E2.00000 F1800.00000
G1 X113.747 Y104.285 E0.19312 F588.000
G1 E-2.00000 F1800.00000
G1 X111.325 Y106.940 F7800.000
G1 E2.00000 F1800.00000
G1 X109.246 Y105.757 E0.47735 F480.000
G1 X111.159 Y107.232 F7800.000
G1 X112.013 Y107.761 E0.09461 F480.000
G1 E-2.00000 F1800.00000
G1 X104.122 Y111.023 F7800.000
G1 E2.00000 F1800.00000
G1 X103.574 Y109.424 E0.33715 F480.000
G1 E-2.00000 F1800.00000
G1 X100.296 Y109.417 F7800.000
G1 E2.00000 F1800.00000
G1 X100.362 Y112.239 E0.26572 F480.000
G1 X100.270 Y112.511 E0.02702
G1 E-2.00000 F1800.00000
G1 X97.978 Y114.469 F7800.000
G1 E2.00000 F1800.00000
G1 X97.602 Y114.161 E0.04571 F480.000
G1 X97.318 Y113.814 E0.04222
G1 E-2.00000 F1800.00000
G1 X93.662 Y109.291 F7800.000
G1 E2.00000 F1800.00000
G1 X95.036 Y107.384 E0.22118 F480.000
G1 X97.038 Y105.987 F7800.000
G1 X97.857 Y106.806 E0.10993 F1080.000
G1 X98.574 Y106.631 E0.07005
G1 X97.011 Y105.068 E0.20984
G1 X96.717 Y103.883 E0.11591
G1 X98.858 Y106.024 E0.28745
G1 X99.661 Y105.937 F7800.000
G1 X96.626 Y102.902 E0.40746 F1080.000
G1 X96.536 Y101.920 F7800.000
G1 X101.464 Y106.848 E0.66167 F1080.000
G1 X102.799 Y107.292 F7800.000
G1 X93.474 Y97.967 E1.25193 F1080.000
G1 X94.020 Y97.622 E0.06133
G1 X104.254 Y107.855 E1.37394
G1 X104.538 Y107.248 E0.06363
G1 X94.566 Y97.276 E1.33880
G1 X95.112 Y96.931 E0.06133
G1 X103.247 Y105.066 E1.09218
G1 X103.971 Y104.899 E0.07053
G1 X95.658 Y96.586 E1.11606
G1 X95.296 Y95.332 F7800.000
G1 X104.695 Y104.731 E1.26190 F1080.000
G1 X105.419 Y104.564 E0.07053
G1 X96.866 Y96.011 E1.14823
G1 X96.496 Y94.750 E0.12478
G1 X95.874 Y94.128 E0.08356
G1 X95.585 Y94.730 E0.06341
G1 X96.964 Y96.109 E0.18518
G1 X97.563 Y95.816 E0.06325
G1 X106.143 Y104.397 E1.15194
G1 X107.881 Y103.461 F7800.000
G1 X108.896 Y104.476 E0.13623 F1080.000
G1 E-2.00000 F1800.00000
G1 X107.087 Y96.428 F7800.000
G1 E2.00000 F1800.00000
G1 X109.109 Y98.450 E0.27147 F1080.000
G1 X108.293 Y98.525 E0.07780
G1 X106.387 Y96.620 E0.25584
G1 X105.933 Y97.056 E0.05984
G1 X108.181 Y99.304 E0.30180
G1 X107.393 Y99.408 E0.07541
G1 X105.478 Y97.493 E0.25713
G1 X105.023 Y97.929 E0.05984
G1 X107.268 Y100.174 E0.30136
G1 X107.160 Y100.958 E0.07511
G1 X104.561 Y98.359 E0.34892
G1 X104.086 Y98.775 E0.05996
G1 X107.053 Y101.742 E0.39826
G1 X106.945 Y102.525 E0.07511
G1 X103.612 Y99.192 E0.44759
G1 X103.137 Y99.608 E0.05996
G1 X107.591 Y104.062 E0.59794
G1 X106.867 Y104.229 E0.07053
G1 X98.259 Y95.621 E1.15564
G1 X98.955 Y95.426 E0.06864
G1 X100.625 Y97.097 E0.22423
G1 X100.991 Y96.571 E0.06077
G1 X99.651 Y95.231 E0.17990
