; generated by Slic3r 1.2.9 on 2016-01-09 at 22:08:46

; external perimeters extrusion width = 0.40mm
; perimeters extrusion width = 0.48mm
; infill extrusion width = 0.48mm
; solid infill extrusion width = 0.48mm
; top infill extrusion width = 0.48mm
; support material extrusion width = 0.40mm

M190 S80 ; set bed temperature
M109 S230
G28 ; home all axes
G92 E0  ;reset extruder
G21 ; set units to millimeters
G90 ; use absolute coordinates
M83 ; use relative distances for extrusion
G1 E-1.00000 F1800.00000
G1 Z0.350 F7800.000
G1 X71.720 Y71.229 F7800.000
G1 E1.00000 F1800.00000
G1 X73.633 Y69.964 E0.21588 F1440.000
G1 X76.113 Y69.416 E0.23908
G1 X83.226 Y69.250 E0.66967
G1 X89.073 Y69.199 E0.55043
G1 X98.780 Y69.357 E0.91382 F1440.000
G1 X100.289 Y69.411 E0.14213
G1 X101.900 Y69.530 E0.15206
G1 X103.324 Y69.798 E0.13639
G1 X121.513 Y75.346 E1.78998
G1 X124.386 Y77.124 E0.31806
G1 X126.216 Y79.052 E0.25021
G1 X126.545 Y79.427 E0.04696
G1 X130.873 Y84.738 E0.64492
G1 X131.992 Y86.740 E0.21588
G1 X132.347 Y89.364 E0.24925
G1 X132.132 Y92.582 E0.30357
G1 X131.445 Y95.109 E0.24652
G1 X123.107 Y111.745 E1.75158
G1 X121.700 Y113.624 E0.22090
G1 X108.586 Y125.842 E1.68713
G1 X107.633 Y126.581 E0.11356
G1 X105.578 Y127.891 E0.22939
G1 X103.364 Y128.791 E0.22499
G1 X97.122 Y130.089 E0.60013
G1 X96.264 Y130.209 E0.08155
G1 X93.360 Y130.425 E0.27410
G1 X91.507 Y130.451 E0.17445
G1 X89.245 Y130.068 E0.21588
G1 X87.251 Y128.936 E0.21588
G1 X86.337 Y128.018 E0.12190
G1 X84.604 Y125.897 E0.25781
G1 X84.284 Y125.472 E0.05011
G1 X82.664 Y123.126 E0.26832
G1 X82.141 Y122.227 E0.09794
G1 X72.568 Y102.279 E2.08275
G1 X72.100 Y100.965 E0.13123
G1 X70.284 Y93.432 E0.72937
G1 X70.118 Y92.378 E0.10051
G1 X69.024 Y77.822 E1.37396
G1 X69.251 Y75.540 E0.21588
G1 X69.707 Y74.359 E0.11923
G1 X70.353 Y73.070 E0.13564
G1 X71.684 Y71.277 E0.21023
G1 E-1.00000 F1800.00000
G1 Z0.350 F7800.000
G1 X76.276 Y76.039 F7800.000
G1 E1.00000 F1800.00000
G1 X75.630 Y77.327 E0.13564 F1440.000
G1 X75.856 Y79.666 E0.22120
G1 X77.317 Y76.750 E0.30708
G1 X78.442 Y77.294 F7800.000
G1 X76.212 Y81.744 E0.46856 F1440.000
G1 X76.626 Y83.707 F7800.000
G1 X80.030 Y76.915 E0.71513 F1440.000
G1 X81.937 Y75.900 E0.20331
G1 X76.401 Y86.945 E1.16295
G1 X76.758 Y89.023 E0.19843
G1 X83.348 Y75.874 E1.38446
G1 X84.492 Y76.380 E0.11778
G1 X76.724 Y91.879 E1.63194
G1 X77.602 Y92.917 F7800.000
G1 X85.852 Y76.456 E1.73318 F1440.000
G1 X87.427 Y76.103 E0.15195
G1 X78.545 Y93.824 E1.86587
G1 X79.755 Y94.200 E0.11923
G1 X88.965 Y75.823 E1.93487
G1 X90.282 Y75.986 E0.12484
G1 X80.938 Y94.628 E1.96279
G1 X80.096 Y96.308 F7800.000
G1 X78.540 Y99.412 E0.32681 F1440.000
G1 X79.558 Y100.172 E0.11950
G1 X91.489 Y76.366 E2.50653
G1 X92.694 Y76.751 E0.11906
G1 X80.832 Y100.419 E2.49193
G1 X82.262 Y100.354 E0.13480
G1 X93.819 Y77.296 E2.42775
G1 X94.863 Y78.002 F7800.000
G1 X82.454 Y102.761 E2.60683 F1440.000
G1 X82.810 Y104.839 E0.19845
G1 X95.936 Y78.650 E2.75745
G1 E-1.00000 F1800.00000
G1 X98.672 Y75.981 F7800.000
G1 E1.00000 F1800.00000
G1 X83.167 Y106.917 E3.25726 F1440.000
G1 X83.654 Y108.733 E0.17705
G1 X100.045 Y76.031 E3.44322
G1 E-1.00000 F1800.00000
G1 X103.524 Y77.457 F7800.000
G1 E1.00000 F1800.00000
G1 X94.869 Y94.726 E1.81822 F1440.000
G1 X93.582 Y94.505 E0.12294
G1 X102.548 Y76.615 E1.88367
G1 X101.391 Y76.135 E0.11794
G1 X84.535 Y109.765 E3.54092
G1 X85.284 Y111.061 F7800.000
G1 X93.449 Y94.769 E1.71531 F1440.000
G1 X94.145 Y96.169 F7800.000
G1 X86.281 Y111.860 E1.65204 F1440.000
G1 X87.699 Y111.821 F7800.000
G1 X103.225 Y80.843 E3.26167 F1440.000
G1 X104.512 Y81.064 E0.12294
G1 X87.663 Y114.682 E3.53972
G1 X87.757 Y117.283 E0.24492
G1 X105.718 Y81.446 E3.77320
G1 X106.852 Y81.974 E0.11769
G1 X88.114 Y119.360 E3.93639
G1 X89.065 Y120.251 E0.12269
G1 X107.888 Y82.697 E3.95404
G1 X108.726 Y83.813 E0.13139
G1 X90.500 Y120.178 E3.82892
G1 X90.171 Y120.835 F7800.000
G1 X89.734 Y121.705 E0.09163 F1440.000
G1 X90.662 Y122.644 E0.12420
G1 X110.219 Y83.624 E4.10835
G1 X111.909 Y83.042 E0.16828
G1 X112.155 Y82.551 E0.05169
G1 X91.467 Y123.826 E4.34593
G1 X92.870 Y123.818 E0.13198
G1 X113.767 Y82.124 E4.38996
G1 X115.054 Y82.345 E0.12294
G1 X94.332 Y123.690 E4.35319
G1 X95.773 Y123.603 E0.13595
G1 X116.341 Y82.566 E4.32074
G1 X117.628 Y82.787 E0.12294
G1 X99.306 Y119.344 E3.84912
G1 X99.159 Y119.637 F7800.000
G1 X97.392 Y123.162 E0.37111 F1440.000
G1 E-1.00000 F1800.00000
G1 X105.414 Y118.314 F7800.000
G1 E1.00000 F1800.00000
G1 X104.070 Y120.995 E0.28223 F1440.000
G1 X102.016 Y122.305 E0.22939
G1 X104.930 Y116.491 E0.61217
G1 X104.345 Y114.869 E0.16231
G1 X101.111 Y121.320 E0.67923
G1 X100.030 Y120.688 E0.11788
G1 X104.281 Y112.207 E0.89306
G1 X105.254 Y113.055 E0.12150
G1 X120.437 Y82.762 E3.18957
G1 X121.409 Y83.611 F7800.000
G1 X106.098 Y114.160 E3.21648 F1440.000
G1 X106.980 Y115.189 E0.12758
G1 X122.151 Y84.921 E3.18696
G1 X123.008 Y86.000 E0.12972
G1 X108.509 Y114.928 E3.04589
G1 X110.113 Y114.517 E0.15589
G1 X123.243 Y88.319 E2.75833
G1 X124.449 Y88.702 F7800.000
G1 X119.726 Y98.127 E0.99234 F1440.000
G1 X121.676 Y97.025 E0.21082
G1 X125.737 Y88.923 E0.85310
G1 X125.086 Y90.221 E0.13668
G1 X125.522 Y92.141 E0.18530
G1 X125.331 Y92.522 E0.04012
G1 E-1.00000 F1800.00000
G1 X118.916 Y83.008 F7800.000
G1 E1.00000 F1800.00000
G1 X104.344 Y112.081 E3.06108 F1440.000
G1 E-1.00000 F1800.00000
G1 X111.938 Y113.664 F7800.000
G1 E1.00000 F1800.00000
G1 X112.367 Y112.809 E0.09003 F1440.000
G1 E-1.00000 F1800.00000
G1 X113.331 Y110.886 F7800.000
G1 E1.00000 F1800.00000
G1 X119.414 Y98.748 E1.27796 F1440.000
G1 X119.648 Y101.070 E0.21970
G1 X118.265 Y103.830 E0.29057
G1 X117.690 Y104.977 F7800.000
G1 X114.979 Y110.387 E0.56956 F1440.000
G1 X117.184 Y108.777 E0.25699
G1 X117.445 Y108.256 E0.05481
G1 E-1.00000 F1800.00000
G1 X119.141 Y82.558 F7800.000
G1 E1.00000 F1800.00000
G1 X119.580 Y81.683 E0.09220 F1440.000
G1 E-1.00000 F1800.00000
G1 X76.480 Y83.999 F7800.000
G1 E1.00000 F1800.00000
G1 X76.176 Y84.606 E0.06388 F1440.000
M104 S231 ; set temperature
M140 S85 ; wait for bed temperature to be reached
G1 E-1.00000 F1800.00000
G1 Z0.650 F7800.000
G1 X94.508 Y95.070 F7800.000
G1 E1.00000 F1800.00000
G1 X94.054 Y95.524 E0.02780 F2100.000
G1 X93.960 Y94.976 E0.02407
G1 X94.449 Y95.060 E0.02147
G1 X94.151 Y95.250 F7800.000
G1 E-1.00000 F1800.00000
G1 Z0.650 F7800.000
G1 X95.302 Y95.895 F7800.000
G1 E1.00000 F1800.00000
G1 X122.349 Y95.895 E1.17203 F3600.000
G1 E-1.00000 F1800.00000
G1 X124.942 Y90.559 F7800.000
G1 E1.00000 F1800.00000
G1 X77.374 Y90.559 E2.06126 F3600.000
G1 E-1.00000 F1800.00000
G1 X76.634 Y85.224 F7800.000
G1 E1.00000 F1800.00000
G1 X121.847 Y85.224 E1.95920 F3600.000
G1 E-1.00000 F1800.00000
G1 X119.326 Y101.230 F7800.000
G1 E1.00000 F1800.00000
G1 X82.854 Y101.230 E1.58047 F3600.000
G1 X83.459 Y106.566 E0.23269
G1 X117.199 Y106.566 E1.46203
G1 X112.007 Y111.902 F7800.000
G1 X104.976 Y111.902 E0.30467 F3600.000
G1 X103.963 Y111.902 F7800.000
G1 X88.065 Y111.902 E0.68891 F3600.000
G1 E-1.00000 F1800.00000
G1 X88.102 Y117.237 F7800.000
G1 E1.00000 F1800.00000
G1 X104.400 Y117.237 E0.70626 F3600.000
G1 E-1.00000 F1800.00000
G1 X98.673 Y119.492 F7800.000
G1 E1.00000 F1800.00000
G1 X99.048 Y118.988 E0.02722 F3600.000
G1 X99.597 Y119.256 E0.02645
G1 X99.430 Y119.422 E0.01020
G1 X99.521 Y119.466 E0.00436
G1 X99.480 Y119.754 E0.01261
G1 X98.664 Y119.896 E0.03589
G1 X98.529 Y119.636 E0.01270
G1 X98.673 Y119.492 E0.00885
G1 E-1.00000 F1800.00000
G1 X97.632 Y122.573 F7800.000
G1 E1.00000 F1800.00000
G1 X91.213 Y122.573 E0.27815 F3600.000
G1 E-1.00000 F1800.00000
G1 X93.114 Y95.895 F7800.000
G1 E1.00000 F1800.00000
G1 X81.898 Y95.895 E0.48600 F3600.000
G1 E-1.00000 F1800.00000
G1 X93.152 Y94.835 F7800.000
G1 E1.00000 F1800.00000
G1 X93.013 Y94.029 E0.03540 F3600.000
G1 X96.264 Y94.587 E0.14291
G1 X93.571 Y97.280 E0.16502
G1 X93.152 Y94.835 E0.10751
G1 E-1.00000 F1800.00000
G1 X96.141 Y79.888 F7800.000
G1 E1.00000 F1800.00000
G1 X76.246 Y79.888 E0.86211 F3600.000
G1 E-1.00000 F1800.00000
G1 X83.175 Y76.023 F7800.000
G1 E1.00000 F1800.00000
G1 X82.302 Y75.874 E0.03835 F3600.000
G1 X82.055 Y76.007 E0.01219
G1 X82.019 Y76.001 E0.00158
G1 X80.039 Y77.067 E0.09745
G1 X79.853 Y77.141 E0.00867
G1 X79.012 Y77.594 E0.04137
G1 X77.913 Y77.405 E0.04833
G1 X75.692 Y75.890 E0.11652
G1 X75.856 Y76.842 E0.04187
G1 X75.657 Y76.706 E0.01043
G1 X75.819 Y77.653 E0.04162
G1 X75.620 Y77.517 E0.01044
G1 X76.620 Y83.347 E0.25632
G1 X76.868 Y83.767 E0.02112
G1 X77.033 Y84.728 E0.04225
G1 X76.211 Y84.038 E0.04648
G1 X76.466 Y85.522 E0.06523
G1 X76.260 Y85.350 E0.01162
G1 X77.301 Y91.415 E0.26670
G1 X76.802 Y91.689 E0.02470
G1 X77.559 Y91.892 E0.03397
G1 X77.822 Y93.425 E0.06742
G1 X77.983 Y93.337 E0.00794
G1 X78.008 Y93.485 E0.00650
G1 X78.169 Y93.397 E0.00793
G1 X78.194 Y93.546 E0.00653
G1 X78.355 Y93.458 E0.00794
G1 X78.380 Y93.607 E0.00653
G1 X78.541 Y93.519 E0.00793
G1 X78.567 Y93.668 E0.00656
G1 X78.727 Y93.580 E0.00794
G1 X78.753 Y93.728 E0.00650
G1 X78.913 Y93.640 E0.00794
G1 X78.939 Y93.788 E0.00650
G1 X79.099 Y93.700 E0.00793
G1 X79.125 Y93.850 E0.00661
G1 X79.286 Y93.762 E0.00794
G1 X79.311 Y93.911 E0.00653
G1 X79.472 Y93.823 E0.00794
G1 X79.497 Y93.971 E0.00653
G1 X79.658 Y93.884 E0.00794
G1 X79.684 Y94.033 E0.00657
G1 X79.844 Y93.945 E0.00794
G1 X79.870 Y94.092 E0.00647
G1 X80.030 Y94.004 E0.00794
G1 X80.056 Y94.152 E0.00649
G1 X80.216 Y94.064 E0.00793
G1 X80.242 Y94.214 E0.00660
G1 X80.403 Y94.126 E0.00794
G1 X80.428 Y94.275 E0.00654
G1 X80.589 Y94.187 E0.00794
G1 X80.614 Y94.336 E0.00653
G1 X80.775 Y94.248 E0.00794
G1 X80.800 Y94.395 E0.00647
G1 X80.961 Y94.307 E0.00793
G1 X80.987 Y94.457 E0.00660
G1 X81.147 Y94.369 E0.00794
G1 X81.173 Y94.517 E0.00650
G1 X81.333 Y94.429 E0.00794
G1 X81.359 Y94.578 E0.00653
G1 X81.519 Y94.490 E0.00794
G1 X81.545 Y94.639 E0.00657
G1 X81.706 Y94.551 E0.00794
G1 X81.731 Y94.698 E0.00646
G1 X81.892 Y94.610 E0.00793
G1 X81.917 Y94.760 E0.00657
G1 X82.078 Y94.672 E0.00794
G1 X82.103 Y94.820 E0.00653
G1 X82.264 Y94.732 E0.00794
G1 X82.362 Y95.301 E0.02501
G1 X82.193 Y95.341 E0.00752
G1 X82.200 Y95.385 E0.00196
G1 X82.031 Y95.425 E0.00752
G1 X82.039 Y95.469 E0.00196
G1 X81.870 Y95.508 E0.00752
G1 X81.878 Y95.553 E0.00195
G1 X81.709 Y95.592 E0.00752
G1 X81.716 Y95.637 E0.00195
G1 X81.547 Y95.676 E0.00752
G1 X81.555 Y95.721 E0.00195
G1 X81.386 Y95.760 E0.00752
G1 X81.393 Y95.804 E0.00196
G1 X81.224 Y95.844 E0.00752
G1 X81.232 Y95.888 E0.00195
G1 X81.063 Y95.928 E0.00752
G1 X81.071 Y95.972 E0.00195
G1 X80.902 Y96.012 E0.00752
G1 X80.909 Y96.056 E0.00196
G1 X80.740 Y96.095 E0.00752
G1 X80.748 Y96.140 E0.00196
G1 X80.579 Y96.179 E0.00752
G1 X80.587 Y96.224 E0.00195
G1 X80.418 Y96.263 E0.00752
G1 X80.425 Y96.308 E0.00196
G1 X80.256 Y96.347 E0.00752
G1 X80.264 Y96.391 E0.00195
G1 X80.095 Y96.431 E0.00752
G1 X80.103 Y96.475 E0.00195
G1 X79.934 Y96.515 E0.00752
G1 X79.941 Y96.559 E0.00196
G1 X79.772 Y96.599 E0.00752
G1 X79.780 Y96.643 E0.00195
G1 X79.611 Y96.682 E0.00752
G1 X79.619 Y96.727 E0.00195
G1 X79.450 Y96.766 E0.00752
G1 X79.457 Y96.811 E0.00196
G1 X79.288 Y96.850 E0.00752
G1 X79.296 Y96.894 E0.00195
G1 X79.127 Y96.934 E0.00752
G1 X79.135 Y96.978 E0.00196
G1 X78.966 Y97.018 E0.00752
G1 X78.973 Y97.062 E0.00195
G1 X78.804 Y97.102 E0.00752
G1 X78.812 Y97.146 E0.00195
G1 X78.643 Y97.185 E0.00752
G1 X78.651 Y97.230 E0.00196
G1 X78.482 Y97.269 E0.00752
G1 X78.489 Y97.314 E0.00195
G1 X78.320 Y97.353 E0.00752
G1 X78.742 Y99.809 E0.10797
G1 X81.562 Y100.356 E0.12450
G1 X81.550 Y100.285 E0.00312
G1 X81.732 Y100.320 E0.00802
G1 X81.719 Y100.250 E0.00308
G1 X81.901 Y100.286 E0.00803
G1 X81.889 Y100.215 E0.00312
G1 X82.071 Y100.250 E0.00802
G1 X82.059 Y100.179 E0.00312
G1 X82.241 Y100.214 E0.00802
G1 X82.228 Y100.143 E0.00313
G1 X82.410 Y100.178 E0.00802
G1 X82.398 Y100.107 E0.00311
G1 X82.580 Y100.143 E0.00802
G1 X82.568 Y100.073 E0.00307
G1 X82.750 Y100.108 E0.00802
G1 X82.737 Y100.037 E0.00311
G1 X83.189 Y100.125 E0.01993
G1 X83.247 Y100.461 E0.01479
G1 X83.078 Y100.503 E0.00753
G1 X83.093 Y100.592 E0.00389
G1 X82.925 Y100.634 E0.00753
G1 X82.940 Y100.722 E0.00388
G1 X82.771 Y100.764 E0.00753
G1 X82.787 Y100.854 E0.00395
G1 X82.618 Y100.896 E0.00753
G1 X82.634 Y100.985 E0.00393
G1 X82.465 Y101.027 E0.00753
G1 X82.480 Y101.116 E0.00391
G1 X82.312 Y101.158 E0.00753
G1 X83.508 Y108.127 E0.30640
G1 X83.672 Y108.061 E0.00768
G1 X83.799 Y108.801 E0.03256
G1 X83.964 Y108.735 E0.00768
G1 X83.983 Y108.851 E0.00509
G1 X84.155 Y108.824 E0.00751
G1 X84.201 Y109.093 E0.01182
G1 X84.372 Y109.066 E0.00751
G1 X84.418 Y109.335 E0.01181
G1 X84.589 Y109.308 E0.00751
G1 X84.635 Y109.575 E0.01174
G1 X84.806 Y109.548 E0.00751
G1 X84.852 Y109.817 E0.01183
G1 X85.023 Y109.790 E0.00751
G1 X85.069 Y110.058 E0.01177
G1 X85.240 Y110.031 E0.00751
G1 X85.692 Y112.666 E0.11584
G1 X87.230 Y110.363 E0.11999
G1 X87.254 Y110.501 E0.00603
G1 X87.605 Y110.501 E0.01523
G1 X87.646 Y110.735 E0.01029
G1 X87.854 Y111.225 E0.02309
G1 X87.734 Y111.249 E0.00531
G1 X87.885 Y112.127 E0.03863
G1 X87.715 Y112.161 E0.00751
G1 X87.865 Y113.040 E0.03862
G1 X87.695 Y113.074 E0.00751
G1 X87.846 Y113.952 E0.03862
G1 X87.676 Y113.986 E0.00751
G1 X87.827 Y114.866 E0.03866
G1 X87.657 Y114.900 E0.00751
G1 X87.808 Y115.778 E0.03862
G1 X87.638 Y115.812 E0.00751
G1 X88.283 Y119.568 E0.16514
G1 X88.443 Y119.481 E0.00793
G1 X88.511 Y119.872 E0.01721
G1 X88.671 Y119.785 E0.00792
G1 X88.739 Y120.179 E0.01731
G1 X88.900 Y120.092 E0.00792
G1 X88.912 Y120.162 E0.00310
G1 X89.239 Y120.024 E0.01541
G1 X89.300 Y120.380 E0.01565
G1 X89.962 Y119.718 E0.04052
G1 X90.471 Y119.503 E0.02396
G1 X90.744 Y120.540 E0.04644
G1 X90.637 Y120.558 E0.00469
G1 X90.730 Y120.911 E0.01582
G1 X89.448 Y121.134 E0.05641
G1 X91.275 Y122.983 E0.11264
G1 X91.452 Y123.656 E0.03016
G1 X91.869 Y123.583 E0.01833
G1 X91.999 Y123.714 E0.00798
G1 X94.534 Y123.492 E0.11028
G1 X94.539 Y123.531 E0.00170
G1 X96.670 Y123.344 E0.09270
G1 X96.950 Y123.624 E0.01718
G1 X97.444 Y122.979 E0.03517
G1 X97.816 Y122.915 E0.01638
G1 X97.862 Y122.433 E0.02098
G1 X99.552 Y120.224 E0.12050
G1 X101.035 Y120.948 E0.07150
G1 X102.253 Y122.276 E0.07809
G1 X102.504 Y122.025 E0.01534
G1 X102.707 Y122.247 E0.01301
G1 X104.695 Y120.258 E0.12186
G1 X104.687 Y119.842 E0.01802
G1 X105.608 Y118.921 E0.05646
G1 X105.337 Y118.767 E0.01349
G1 X105.502 Y118.603 E0.01010
G1 X105.231 Y118.449 E0.01349
G1 X105.396 Y118.284 E0.01011
G1 X105.125 Y118.131 E0.01349
G1 X105.290 Y117.966 E0.01009
G1 X105.019 Y117.813 E0.01349
G1 X105.184 Y117.648 E0.01010
G1 X104.913 Y117.494 E0.01349
G1 X105.078 Y117.330 E0.01010
G1 X104.807 Y117.176 E0.01349
G1 X104.972 Y117.011 E0.01010
G1 X104.701 Y116.858 E0.01349
G1 X104.866 Y116.693 E0.01010
G1 X104.595 Y116.540 E0.01349
G1 X104.760 Y116.375 E0.01010
G1 X104.489 Y116.222 E0.01349
G1 X104.654 Y116.057 E0.01010
G1 X104.383 Y115.903 E0.01349
G1 X104.548 Y115.739 E0.01010
G1 X104.277 Y115.585 E0.01349
G1 X104.442 Y115.420 E0.01010
G1 X104.171 Y115.267 E0.01349
G1 X104.336 Y115.102 E0.01010
G1 X104.065 Y114.949 E0.01349
G1 X104.230 Y114.784 E0.01010
G1 X104.172 Y114.751 E0.00288
G1 X104.178 Y111.950 E0.12138
G1 X104.487 Y111.879 E0.01376
G1 X104.521 Y111.947 E0.00329
G1 X104.572 Y111.896 E0.00310
G1 X104.711 Y112.181 E0.01374
G1 X104.762 Y112.130 E0.00310
G1 X104.902 Y112.415 E0.01374
G1 X104.952 Y112.364 E0.00310
G1 X105.092 Y112.649 E0.01374
G1 X105.142 Y112.598 E0.00310
G1 X105.282 Y112.883 E0.01374
G1 X105.333 Y112.832 E0.00310
G1 X105.472 Y113.117 E0.01374
G1 X105.523 Y113.066 E0.00310
G1 X105.663 Y113.351 E0.01374
G1 X105.713 Y113.300 E0.00310
G1 X105.853 Y113.585 E0.01374
G1 X105.904 Y113.534 E0.00310
G1 X106.043 Y113.819 E0.01374
G1 X106.094 Y113.768 E0.00310
G1 X106.234 Y114.053 E0.01374
G1 X106.284 Y114.002 E0.00310
G1 X106.424 Y114.286 E0.01374
G1 X106.475 Y114.236 E0.00310
G1 X106.614 Y114.520 E0.01374
G1 X106.665 Y114.470 E0.00310
G1 X106.805 Y114.754 E0.01374
G1 X106.855 Y114.704 E0.00310
G1 X106.995 Y114.988 E0.01374
G1 X107.046 Y114.938 E0.00310
G1 X107.185 Y115.222 E0.01374
G1 X107.755 Y114.652 E0.03494
G1 X107.998 Y114.834 E0.01313
