; generated by Slic3r 1.2.9 on 2016-01-09 at 23:28:53

; external perimeters extrusion width = 0.40mm
; perimeters extrusion width = 0.48mm
; infill extrusion width = 0.48mm
; solid infill extrusion width = 0.48mm
; top infill extrusion width = 0.48mm
; support material extrusion width = 0.40mm

M190 S80 ; set bed temperature
M109 S230
G28 ; home all axes
G92 E0  ;reset extruder
G21 ; set units to millimeters
G90 ; use absolute coordinates
M83 ; use relative distances for extrusion
G1 E-1.00000 F1800.00000
G1 Z0.350 F7800.000
G1 X69.782 Y70.046 F7800.000
G1 E1.00000 F1800.00000
G1 X71.139 Y68.694 E0.18035 F1440.000
G1 X73.279 Y67.267 E0.24207
G1 X101.929 Y55.394 E2.91922
G1 X103.118 Y55.028 E0.11714
G1 X105.410 Y54.939 E0.21588
G1 X106.780 Y55.276 E0.13285
G1 X121.283 Y60.546 E1.45248 F1440.000
G1 X123.216 Y61.646 E0.20928
G1 X140.070 Y75.436 E2.04980
G1 X141.567 Y77.173 E0.21588
G1 X142.487 Y80.159 E0.29410
G1 X143.702 Y100.049 E1.87571
G1 X143.625 Y101.536 E0.14013
G1 X140.142 Y122.559 E2.00584
G1 X139.997 Y123.228 E0.06445
G1 X138.664 Y125.845 E0.27648
G1 X124.375 Y143.007 E2.10207
G1 X122.624 Y144.489 E0.21588
G1 X120.474 Y145.285 E0.21588
G1 X119.190 Y145.392 E0.12129
G1 X93.635 Y145.028 E2.40563
G1 X91.382 Y144.599 E0.21588
G1 X90.342 Y144.098 E0.10870
G1 X88.948 Y143.266 E0.15282
G1 X65.078 Y128.222 E2.65588
G1 X63.145 Y126.363 E0.25244
G1 X62.861 Y125.948 E0.04730
G1 X62.052 Y124.332 E0.17012
G1 X57.193 Y110.014 E1.42328
G1 X56.842 Y107.990 E0.19331
G1 X56.497 Y86.364 E2.03590
G1 X57.199 Y83.290 E0.29679
G1 X57.425 Y82.838 E0.04758
G1 X58.672 Y81.113 E0.20035
G1 X69.739 Y70.088 E1.47046
G1 E-1.00000 F1800.00000
G1 X131.392 Y116.993 F7800.000
G1 E1.00000 F1800.00000
G1 X131.929 Y117.276 E0.05712 F840.000
G1 X132.528 Y120.640 E0.32164
G1 X132.568 Y120.986 E0.03277
G1 X132.326 Y121.074 E0.02422
G1 X128.969 Y122.052 E0.32918
G1 X118.308 Y114.362 E1.23730
G1 X115.463 Y115.020 E0.27491
G1 X122.874 Y121.934 E0.95408
G1 X122.717 Y125.157 E0.30373
G1 X119.488 Y125.078 E0.30406
G1 X114.989 Y119.476 E0.67631
G1 X113.514 Y122.626 E0.32742
G1 X112.862 Y123.631 E0.11276
G1 X111.935 Y124.331 E0.10932
G1 X113.037 Y126.774 E0.25226
G1 X111.825 Y127.374 E0.12729
G1 X114.160 Y132.595 E0.53841
G1 X113.493 Y134.817 E0.21835
G1 X111.582 Y133.699 E0.20840
G1 X110.609 Y134.549 E0.12164
G1 X110.067 Y134.569 E0.05102
G1 X108.381 Y133.827 E0.17338
G1 X108.221 Y133.196 E0.06119
G1 X108.034 Y133.079 E0.02084
G1 X105.340 Y121.893 E1.08302
G1 X103.492 Y121.644 E0.17558
G1 X101.435 Y120.604 E0.21698
G1 X102.133 Y130.987 E0.97956
G1 X100.950 Y132.608 E0.18888
G1 X99.695 Y131.044 E0.18877
G1 X99.825 Y124.770 E0.59071
G1 X97.203 Y126.711 E0.30710
G1 X96.039 Y136.332 E0.91226
G1 X94.801 Y137.177 E0.14108
G1 X93.899 Y137.371 E0.08680
G1 X93.149 Y136.924 E0.08218
G1 X92.225 Y135.668 E0.14677
G1 X92.617 Y133.941 E0.16660
G1 X91.184 Y132.360 E0.20081
G1 X94.267 Y121.210 E1.08899
G1 X92.596 Y121.615 E0.16186
G1 X91.165 Y121.135 E0.14213
G1 X89.835 Y119.229 E0.21870
G1 X86.187 Y125.428 E0.67698
G1 X83.140 Y125.554 E0.28698
G1 X82.533 Y125.473 E0.05765
G1 X82.348 Y125.135 E0.03627
G1 X81.189 Y121.249 E0.38169
G1 X87.906 Y113.975 E0.93194
G1 X86.558 Y112.583 E0.18237
G1 X85.379 Y113.603 E0.14674
G1 X83.981 Y113.278 E0.13513
G1 X77.014 Y118.626 E0.82666
G1 X76.414 Y118.582 E0.05667
G1 X71.682 Y122.122 E0.55625
G1 X69.947 Y121.996 E0.16370
G1 X69.339 Y121.816 E0.05974
G1 X69.392 Y121.217 E0.05667
G1 X69.928 Y119.529 E0.16665
G1 X74.935 Y116.476 E0.55201
G1 X75.004 Y115.663 E0.07683
G1 X84.291 Y110.252 E1.01170
G1 X85.485 Y106.545 E0.36663
G1 X71.466 Y112.203 E1.42299
G1 X69.846 Y111.762 E0.15801
G1 X70.821 Y110.399 E0.15774
G1 X86.618 Y105.477 E1.55746
G1 X86.147 Y103.598 E0.18235
G1 X83.689 Y104.069 E0.23559
G1 X83.724 Y103.960 E0.01078
G1 X71.383 Y106.343 E1.18310
G1 X71.433 Y104.707 E0.15406
G1 X67.757 Y105.156 E0.34861
G1 X66.804 Y102.970 E0.22446
G1 X67.476 Y100.686 E0.22405
G1 X71.109 Y100.677 E0.34200
G1 X67.928 Y96.267 E0.51182
G1 X71.171 Y93.905 E0.37761
G1 X66.645 Y92.852 E0.43737
G1 X65.290 Y91.258 E0.19688
G1 X67.282 Y90.570 E0.19831
G1 X78.417 Y94.160 E1.10126
G1 X78.832 Y93.326 E0.08768
G1 X81.996 Y91.325 E0.35241
G1 X80.624 Y90.586 E0.14670
G1 X80.442 Y88.502 E0.19696
G1 X77.859 Y86.951 E0.28356
G1 X77.268 Y85.730 E0.12775
G1 X77.513 Y85.370 E0.04094
G1 X77.691 Y84.399 E0.09294
G1 X78.401 Y83.148 E0.13543
G1 X79.778 Y82.143 E0.16047
G1 X80.472 Y81.896 E0.06929
G1 X82.423 Y83.699 E0.25008
G1 X83.816 Y82.354 E0.18228
G1 X78.518 Y76.205 E0.76398
G1 X78.792 Y75.960 E0.03464
G1 X85.511 Y83.193 E0.92927
G1 X86.332 Y81.979 E0.13793
G1 X87.610 Y81.203 E0.14070
G1 X89.231 Y80.956 E0.15438
G1 X85.674 Y74.448 E0.69814
G1 X86.997 Y73.880 E0.13558
G1 X86.229 Y72.287 E0.16644
G1 X86.458 Y71.791 E0.05142
G1 X87.512 Y70.495 E0.15727
G1 X88.117 Y70.299 E0.05987
G1 X90.281 Y70.735 E0.20778
G1 X94.072 Y82.089 E1.12673
G1 X95.946 Y81.571 E0.18303
G1 X95.149 Y77.957 E0.34839
G1 X97.278 Y75.910 E0.27803
G1 X97.013 Y73.316 E0.24541
G1 X97.288 Y73.042 E0.03652
G1 X99.534 Y74.308 E0.24277
G1 X99.438 Y70.222 E0.38472
G1 X100.756 Y68.910 E0.17508
G1 X102.708 Y68.634 E0.18557
G1 X102.968 Y64.969 E0.34594
G1 X104.324 Y63.260 E0.20536
G1 X104.981 Y64.614 E0.14162
G1 X106.275 Y64.720 E0.12218
G1 X108.006 Y65.726 E0.18852
G1 X107.697 Y67.219 E0.14359
G1 X109.255 Y68.322 E0.17966
G1 X109.824 Y69.276 E0.10458
G1 X110.435 Y69.180 E0.05819
G1 X111.864 Y70.373 E0.17523
G1 X113.789 Y69.974 E0.18507
G1 X116.297 Y69.721 E0.23723
G1 X117.347 Y71.511 E0.19538
G1 X118.086 Y73.208 E0.17422
G1 X117.244 Y74.545 E0.14882
G1 X117.934 Y76.155 E0.16485
G1 X106.826 Y92.089 E1.82833
G1 X108.170 Y93.299 E0.17028
G1 X110.106 Y91.625 E0.24099
G1 X110.192 Y91.690 E0.01012
G1 X123.399 Y79.017 E1.72298
G1 X124.073 Y78.949 E0.06373
G1 X125.678 Y78.830 E0.15155
G1 X125.140 Y81.030 E0.21325
G1 X118.548 Y86.238 E0.79083
G1 X121.122 Y87.160 E0.25734
G1 X127.672 Y82.677 E0.74710
G1 X128.629 Y82.604 E0.09041
G1 X128.822 Y83.632 E0.09854
G1 X130.279 Y82.735 E0.16104
G1 X132.452 Y82.861 E0.20491
G1 X131.418 Y84.791 E0.20608
G1 X126.205 Y87.443 E0.55051
G1 X126.414 Y90.628 E0.30040
G1 X131.924 Y88.409 E0.55906
G1 X132.557 Y88.589 E0.06201
G1 X132.955 Y89.620 E0.10408
G1 X132.568 Y90.195 E0.06524
G1 X127.868 Y91.717 E0.46504
G1 X131.084 Y93.824 E0.36190
G1 X130.939 Y94.118 E0.03083
G1 X128.604 Y97.459 E0.38368
G1 X132.835 Y96.932 E0.40126
G1 X134.309 Y98.355 E0.19289
G1 X133.203 Y99.062 E0.12355
G1 X131.204 Y99.152 E0.18844
G1 X130.969 Y100.203 E0.10143
G1 X128.267 Y100.452 E0.25538
G1 X126.602 Y100.491 E0.15678
G1 X126.394 Y102.056 E0.14860
G1 X125.719 Y102.954 E0.10576
G1 X120.364 Y102.652 E0.50479
G1 X120.131 Y104.558 E0.18067
G1 X133.922 Y107.173 E1.32129
G1 X134.157 Y107.304 E0.02534
G1 X133.685 Y110.207 E0.27691
G1 X126.168 Y108.163 E0.73322
G1 X126.677 Y110.358 E0.21216
G1 X126.147 Y112.391 E0.19774
G1 X131.576 Y114.749 E0.55717
G1 X132.009 Y115.705 E0.09877
G1 X131.418 Y116.939 E0.12875
G1 X132.216 Y116.720 F7800.000
G1 X132.491 Y116.865 E0.02929 F588.000
G1 X133.146 Y120.549 E0.35219
G1 X133.246 Y121.404 E0.08102
G1 X132.521 Y121.668 E0.07261
G1 X128.851 Y122.737 E0.35983
G1 X118.173 Y115.035 E1.23932
G1 X116.748 Y115.364 E0.13767
G1 X123.513 Y121.675 E0.87083
G1 X123.312 Y125.797 E0.38842
G1 X119.182 Y125.696 E0.38880
G1 X115.130 Y120.649 E0.60924
G1 X114.062 Y122.930 E0.23708
G1 X113.326 Y124.063 E0.12717
G1 X112.710 Y124.529 E0.07270
G1 X115.077 Y129.776 E0.54185
G1 X114.753 Y129.937 E0.03399
G1 X113.330 Y127.326 E0.27992
G1 X112.641 Y127.667 E0.07238
G1 X114.825 Y132.553 E0.50374
G1 X113.863 Y135.758 E0.31500
G1 X111.654 Y134.465 E0.24085
G1 X110.853 Y135.165 E0.10014
G1 X109.947 Y135.199 E0.08537
G1 X107.850 Y134.276 E0.21562
G1 X107.678 Y133.594 E0.06620
G1 X107.486 Y133.474 E0.02125
G1 X104.833 Y122.455 E1.06686
G1 X103.304 Y122.249 E0.14524
G1 X102.132 Y121.656 E0.12362
G1 X102.772 Y131.172 E0.89768
G1 X101.354 Y133.114 E0.22638
G1 X100.569 Y133.131 E0.07392
G1 X99.066 Y131.258 E0.22609
G1 X99.174 Y126.029 E0.49228
G1 X97.791 Y127.053 E0.16197
G1 X96.625 Y136.689 E0.91362
G1 X95.052 Y137.762 E0.17929
G1 X93.790 Y138.033 E0.12142
G1 X92.720 Y137.396 E0.11722
G1 X91.553 Y135.808 E0.18556
G1 X91.935 Y134.120 E0.16287
G1 X90.490 Y132.525 E0.20259
G1 X93.381 Y122.068 E1.02128
G1 X92.568 Y122.265 E0.07878
G1 X90.770 Y121.661 E0.17852
G1 X89.879 Y120.385 E0.14648
G1 X86.552 Y126.038 E0.61740
G1 X83.112 Y126.180 E0.32416
G1 X82.276 Y126.069 E0.07939
G1 X82.075 Y125.935 E0.02270
G1 X81.768 Y125.378 E0.05990
G1 X80.976 Y122.721 E0.26092
G1 X79.033 Y124.783 E0.26668
G1 X78.031 Y123.748 E0.13563
G1 X87.046 Y113.986 E1.25083
G1 X86.520 Y113.442 E0.07117
G1 X85.547 Y114.283 E0.12104
G1 X84.127 Y113.954 E0.13725
G1 X77.206 Y119.267 E0.82128
G1 X76.601 Y119.223 E0.05709
G1 X71.869 Y122.762 E0.55623
G1 X69.835 Y122.614 E0.19199
G1 X68.828 Y122.317 E0.09883
G1 X68.685 Y122.109 E0.02376
G1 X68.776 Y121.093 E0.09603
G1 X69.404 Y119.117 E0.19511
G1 X74.339 Y116.108 E0.54417
G1 X74.382 Y115.599 E0.04804
G1 X74.494 Y115.237 E0.03568
G1 X83.770 Y109.833 E1.01047
G1 X84.481 Y107.624 E0.21846
G1 X71.505 Y112.861 E1.31716
G1 X69.651 Y112.356 E0.18079
G1 X69.215 Y111.987 E0.05381
G1 X69.326 Y111.415 E0.05488
G1 X70.435 Y109.864 E0.17945
G1 X85.868 Y105.056 E1.52161
G1 X85.684 Y104.323 E0.07116
G1 X82.770 Y104.881 E0.27933
G1 X82.805 Y104.774 E0.01063
G1 X71.247 Y107.006 E1.10803
G1 X70.746 Y106.730 E0.05382
G1 X70.786 Y105.415 E0.12378
G1 X67.851 Y105.774 E0.27833
G1 X67.362 Y105.814 E0.04620
G1 X66.141 Y103.011 E0.28781
G1 X67.008 Y100.062 E0.28931
G1 X69.890 Y100.055 E0.27129
G1 X67.057 Y96.128 E0.45577
G1 X69.699 Y94.204 E0.30761
G1 X66.303 Y93.414 E0.32821
G1 X64.766 Y91.606 E0.22336
G1 X64.575 Y91.053 E0.05501
G1 X64.922 Y90.725 E0.04495
G1 X67.275 Y89.911 E0.23436
G1 X78.097 Y93.401 E1.07032
G1 X78.350 Y92.892 E0.05352
G1 X78.923 Y92.530 E0.06376
G1 X72.239 Y89.765 E0.68085
G1 X72.380 Y89.420 E0.03518
G1 X79.361 Y92.253 E0.70911
G1 X80.758 Y91.369 E0.15568
G1 X80.030 Y90.977 E0.07780
G1 X79.847 Y88.874 E0.19872
G1 X77.378 Y87.391 E0.27111
G1 X76.548 Y85.676 E0.17932
G1 X76.922 Y85.128 E0.06252
G1 X77.095 Y84.182 E0.09044
G1 X77.924 Y82.722 E0.15805
G1 X79.483 Y81.585 E0.18166
G1 X80.618 Y81.180 E0.11341
G1 X82.413 Y82.840 E0.23012
G1 X82.957 Y82.315 E0.07113
G1 X75.969 Y74.204 E1.00778
G1 X76.109 Y73.651 E0.05371
G1 X77.142 Y73.265 E0.10376
G1 X85.434 Y82.191 E1.14683
G1 X85.891 Y81.515 E0.07679
G1 X87.392 Y80.604 E0.16532
G1 X88.255 Y80.473 E0.08213
G1 X84.938 Y74.404 E0.65097
G1 X85.106 Y74.012 E0.04016
G1 X86.151 Y73.563 E0.10706
G1 X85.537 Y72.293 E0.13274
G1 X85.923 Y71.458 E0.08661
G1 X87.144 Y69.958 E0.18202
G1 X88.080 Y69.654 E0.09265
G1 X90.759 Y70.194 E0.25727
G1 X94.477 Y81.329 E1.10497
G1 X95.208 Y81.127 E0.07142
G1 X94.463 Y77.749 E0.32557
G1 X96.626 Y75.670 E0.28235
G1 X96.361 Y73.084 E0.24469
G1 X97.181 Y72.264 E0.10913
G1 X98.883 Y73.224 E0.18396
G1 X98.807 Y69.969 E0.30650
G1 X100.462 Y68.320 E0.21993
G1 X102.120 Y68.086 E0.15760
G1 X102.358 Y64.731 E0.31658
G1 X104.453 Y62.093 E0.31711
G1 X105.388 Y64.020 E0.20160
G1 X106.466 Y64.109 E0.10189
G1 X108.710 Y65.412 E0.24419
G1 X108.392 Y66.946 E0.14748
G1 X109.724 Y67.888 E0.15359
G1 X110.144 Y68.593 E0.07728
G1 X110.618 Y68.519 E0.04512
G1 X112.033 Y69.700 E0.17348
G1 X113.628 Y69.369 E0.15334
G1 X114.416 Y67.527 E0.18859
G1 X115.343 Y66.746 E0.11416
G1 X115.367 Y67.943 E0.11266
G1 X114.770 Y69.247 E0.13499
G1 X116.410 Y69.081 E0.15512
G1 X116.743 Y69.247 E0.03504
G1 X117.905 Y71.227 E0.21607
G1 X118.791 Y73.261 E0.20886
G1 X117.947 Y74.601 E0.14904
G1 X118.645 Y76.227 E0.16663
G1 X107.654 Y91.994 E1.80909
G1 X108.178 Y92.466 E0.06645
G1 X110.083 Y90.819 E0.23707
G1 X110.147 Y90.868 E0.00753
G1 X123.122 Y78.417 E1.69267
G1 X124.018 Y78.326 E0.08479
G1 X126.490 Y78.143 E0.23328
G1 X125.696 Y81.387 E0.31441
G1 X119.820 Y86.030 E0.70496
G1 X121.032 Y86.464 E0.12122
G1 X127.457 Y82.067 E0.73282
G1 X129.140 Y81.937 E0.15893
G1 X129.269 Y82.623 E0.06570
G1 X130.118 Y82.100 E0.09394
G1 X132.555 Y82.241 E0.22977
G1 X133.147 Y82.887 E0.08244
G1 X131.876 Y85.259 E0.25331
G1 X126.856 Y87.813 E0.53019
G1 X126.981 Y89.726 E0.18040
G1 X131.888 Y87.749 E0.49795
G1 X133.028 Y88.073 E0.11150
G1 X133.656 Y89.699 E0.16415
G1 X132.965 Y90.723 E0.11621
G1 X129.302 Y91.910 E0.36249
G1 X131.701 Y93.482 E0.26998
G1 X131.851 Y93.680 E0.02346
G1 X131.479 Y94.437 E0.07942
G1 X129.921 Y96.665 E0.25590
G1 X133.054 Y96.275 E0.29710
G1 X135.313 Y98.455 E0.29550
G1 X133.399 Y99.679 E0.21384
G1 X131.709 Y99.755 E0.15920
G1 X131.480 Y100.784 E0.09927
G1 X128.303 Y101.077 E0.30027
G1 X127.151 Y101.103 E0.10849
G1 X126.992 Y102.300 E0.11368
G1 X126.017 Y103.597 E0.15263
G1 X120.914 Y103.309 E0.48118
G1 X120.823 Y104.053 E0.07050
G1 X134.139 Y106.577 E1.27576
G1 X134.845 Y106.972 E0.07612
G1 X134.190 Y110.992 E0.38344
G1 X127.013 Y109.040 E0.70012
G1 X127.320 Y110.367 E0.12824
G1 X126.887 Y112.031 E0.16186
G1 X132.046 Y114.272 E0.52949
G1 X132.698 Y115.713 E0.14883
G1 X132.242 Y116.666 E0.09954
G1 X132.074 Y116.998 F7800.000
G1 E-1.00000 F1800.00000
G1 X94.260 Y68.877 F7800.000
G1 E1.00000 F1800.00000
G1 X95.663 Y76.110 E0.69357 F588.000
G1 E-1.00000 F1800.00000
G1 X71.985 Y89.460 F7800.000
G1 E1.00000 F1800.00000
G1 X69.060 Y88.261 E0.29761 F588.000
G1 X68.379 Y87.752 E0.07998
G1 E-1.00000 F1800.00000
G1 X66.844 Y105.503 F7800.000
G1 E1.00000 F1800.00000
G1 X64.623 Y105.900 E0.21235 F588.000
G1 E-1.00000 F1800.00000
G1 X115.071 Y130.170 F7800.000
G1 E1.00000 F1800.00000
G1 X116.794 Y133.636 E0.36436 F588.000
G1 E-1.00000 F1800.00000
G1 X80.980 Y121.642 F7800.000
G1 E1.00000 F1800.00000
G1 X78.745 Y124.037 E0.65378 F480.000
G1 E-1.00000 F1800.00000
G1 X74.958 Y109.939 F7800.000
G1 E1.00000 F1800.00000
G1 X81.382 Y107.647 E1.36127 F480.000
G1 X85.570 Y106.152 E0.41857 F480.000
G1 X74.528 Y110.017 F7800.000
G1 X74.214 Y109.703 E0.04957 F1080.000
G1 X73.415 Y109.952 E0.09337
G1 X74.198 Y110.735 E0.12355
G1 X73.452 Y111.036 E0.08982
G1 X72.616 Y110.201 E0.13182
G1 X71.818 Y110.450 E0.09337
G1 X72.705 Y111.337 E0.14008
G1 X71.959 Y111.639 E0.08982
G1 X71.029 Y110.708 E0.14681
G1 X70.575 Y111.303 E0.08342
G1 X70.883 Y111.611 E0.04860
G1 E-1.00000 F1800.00000
G1 X78.447 Y75.850 F7800.000
G1 E1.00000 F1800.00000
G1 X76.610 Y73.797 E0.54970 F480.000
G1 E-1.00000 F1800.00000
G1 X114.051 Y69.634 F7800.000
G1 E1.00000 F1800.00000
G1 X114.843 Y67.844 E0.18422 F480.000
G1 X115.047 Y67.575 E0.03173
G1 E-1.00000 F1800.00000
G1 X116.416 Y70.840 F7800.000
G1 E1.00000 F1800.00000
G1 X115.722 Y70.147 E0.09309 F1080.000
G1 X114.913 Y70.228 E0.07715
G1 X117.381 Y72.696 E0.33115
G1 X117.429 Y73.635 E0.08921
G1 X114.104 Y70.310 E0.44617
G1 X113.334 Y70.431 E0.07398
G1 X117.085 Y74.182 E0.50334
G1 X116.918 Y74.905 F7800.000
G1 X112.596 Y70.584 E0.57993 F1080.000
G1 X111.858 Y70.737 E0.07150
G1 X117.429 Y76.308 E0.74760
G1 X117.063 Y76.833 E0.06071
G1 X109.864 Y69.634 E0.96600
G1 X106.518 Y65.397 F7800.000
G1 X107.508 Y66.386 E0.13273 F1080.000
G1 X107.355 Y67.124 E0.07150
G1 X105.258 Y65.028 E0.28133
G1 X103.792 Y64.453 F7800.000
G1 X116.697 Y77.358 E1.73170 F1080.000
G1 X116.331 Y77.883 E0.06071
G1 X103.398 Y64.949 E1.73549
G1 X103.285 Y65.726 E0.07454
G1 X115.966 Y78.407 E1.70162
G1 X115.600 Y78.932 E0.06071
G1 X103.226 Y66.558 E1.66044
G1 X103.166 Y67.390 E0.07912
G1 X115.234 Y79.457 E1.61925
G1 X114.868 Y79.982 E0.06071
G1 X103.107 Y68.222 E1.57807
G1 X102.959 Y68.964 E0.07181
G1 X114.502 Y80.507 E1.54892
G1 X114.136 Y81.032 E0.06071
G1 X102.178 Y69.074 E1.60458
G1 X101.397 Y69.184 E0.07481
G1 X113.770 Y81.557 E1.66023
G1 X113.404 Y82.082 E0.06071
G1 X100.722 Y69.400 E1.70173
G1 X100.276 Y69.844 E0.05977
G1 X113.038 Y82.607 E1.71253
G1 X112.672 Y83.131 E0.06071
G1 X99.829 Y70.289 E1.72332
G1 X99.842 Y71.192 E0.08575
G1 X112.306 Y83.656 E1.67249
G1 X111.940 Y84.181 E0.06071
G1 X99.864 Y72.105 E1.62050
G1 X99.885 Y73.017 E0.08659
G1 X111.574 Y84.706 E1.56850
G1 X111.208 Y85.231 E0.06071
G1 X99.907 Y73.930 E1.51651
G1 X99.929 Y74.842 F7800.000
