; generated by Slic3r 1.2.9 on 2016-01-10 at 14:05:34

; external perimeters extrusion width = 0.40mm
; perimeters extrusion width = 0.48mm
; infill extrusion width = 0.48mm
; solid infill extrusion width = 0.48mm
; top infill extrusion width = 0.48mm
; support material extrusion width = 0.40mm

M190 S80 ; set bed temperature
M109 S230
G28 ; home all axes
G92 E0  ;reset extruder
G21 ; set units to millimeters
G90 ; use absolute coordinates
M83 ; use relative distances for extrusion
G1 E-1.00000 F1800.00000
G1 Z0.350 F7800.000
G1 X88.524 Y69.065 F7800.000
G1 E1.00000 F1800.00000
G1 X96.717 Y58.565 E1.25363 F1440.000
G1 X98.419 Y57.028 E0.21588
G1 X100.543 Y56.164 E0.21588
G1 X102.036 Y56.016 E0.14122
G1 X114.478 Y56.197 E1.17126
G1 X115.781 Y56.346 E0.12342 F1440.000
G1 X116.269 Y56.451 E0.04699
G1 X118.393 Y57.316 E0.21588
G1 X119.815 Y58.518 E0.17521
G1 X121.686 Y60.617 E0.26468
G1 X122.635 Y62.000 E0.15791
G1 X124.636 Y65.900 E0.41257
G1 X124.980 Y66.692 E0.08132
G1 X125.986 Y69.503 E0.28102
G1 X126.137 Y69.982 E0.04732
G1 X126.632 Y71.785 E0.17593
G1 X126.865 Y73.330 E0.14713
G1 X128.263 Y117.957 E4.20269
G1 X128.255 Y118.561 E0.05692
G1 X128.064 Y121.730 E0.29883
G1 X127.926 Y122.739 E0.09583
G1 X125.216 Y135.216 E1.20183
G1 X124.349 Y137.339 E0.21588
G1 X122.810 Y139.039 E0.21588
G1 X121.677 Y139.750 E0.12591
G1 X111.392 Y144.831 E1.07983
G1 X108.906 Y145.501 E0.24235
G1 X107.459 Y145.599 E0.13653
G1 X105.178 Y145.356 E0.21588
G1 X103.983 Y144.883 E0.12099
G1 X99.462 Y142.560 E0.47848
G1 X96.148 Y140.804 E0.35304
G1 X95.504 Y140.415 E0.07076
G1 X87.180 Y134.710 E0.94991
G1 X85.751 Y133.384 E0.18348
G1 X80.293 Y126.561 E0.82247
G1 X79.907 Y126.026 E0.06210
G1 X77.818 Y122.804 E0.36144
G1 X77.296 Y121.828 E0.10423
G1 X74.060 Y114.338 E0.76802
G1 X73.533 Y111.245 E0.29529
G1 X75.132 Y88.530 E2.14344
G1 X75.818 Y86.027 E0.24431
G1 X76.470 Y84.726 E0.13694
G1 X77.169 Y83.620 E0.12323
G1 X88.487 Y69.113 E1.73196
G1 E-1.00000 F1800.00000
G1 X113.849 Y122.418 F7800.000
G1 E1.00000 F1800.00000
G1 X111.086 Y133.892 E1.11093 F840.000
G1 X110.998 Y133.947 E0.00979
G1 X110.815 Y134.667 E0.06992
G1 X108.548 Y135.666 E0.23324
G1 X108.280 Y135.656 E0.02523
G1 X107.236 Y134.744 E0.13050
G1 X105.373 Y135.834 E0.20314
G1 X104.612 Y133.300 E0.24909
G1 X106.670 Y128.698 E0.47454
G1 X108.560 Y124.545 E0.42953
G1 X106.110 Y124.699 E0.23107
G1 X105.822 Y124.254 E0.04987
G1 X103.994 Y120.352 E0.40565
G1 X99.528 Y125.914 E0.67144
G1 X96.936 Y125.977 E0.24405
G1 X96.254 Y125.919 E0.06442
G1 X96.153 Y125.298 E0.05928
G1 X96.025 Y122.661 E0.24851
G1 X103.351 Y115.826 E0.94310
G1 X100.560 Y115.181 E0.26968
G1 X99.949 Y115.643 E0.07211
G1 X99.859 Y115.638 E0.00846
G1 X89.957 Y122.781 E1.14925
G1 X86.414 Y121.749 E0.34736
G1 X87.256 Y117.017 E0.45239
G1 X86.564 Y116.831 E0.06750
G1 X87.270 Y115.269 E0.16135
G1 X92.508 Y112.994 E0.53749
G1 X92.106 Y111.450 E0.15017
G1 X92.642 Y109.133 E0.22394
G1 X85.012 Y111.209 E0.74435
G1 X84.484 Y107.968 E0.30901
G1 X93.943 Y106.175 E0.90624
G1 X93.933 Y105.813 E0.03412
G1 X95.754 Y104.784 E0.19686
G1 X95.296 Y103.223 E0.15315
G1 X93.203 Y103.341 E0.19733
G1 X92.923 Y102.968 E0.04394
G1 X92.729 Y101.509 E0.13849
G1 X87.793 Y101.395 E0.46469
G1 X87.462 Y99.911 E0.14318
G1 X85.760 Y99.835 E0.16035
G1 X84.294 Y98.897 E0.16384
G1 X86.180 Y97.077 E0.24668
G1 X89.514 Y97.493 E0.31630
G1 X88.124 Y94.669 E0.29624
G1 X88.229 Y94.531 E0.01634
G1 X91.124 Y92.634 E0.32581
G1 X86.361 Y91.091 E0.47134
G1 X85.636 Y90.018 E0.12185
G1 X85.860 Y89.437 E0.05855
G1 X87.082 Y89.091 E0.11955
G1 X92.301 Y91.193 E0.52959
G1 X92.508 Y88.037 E0.29771
G1 X87.560 Y85.519 E0.52261
G1 X86.856 Y84.205 E0.14030
G1 X87.470 Y83.534 E0.08561
G1 X88.699 Y83.463 E0.11585
G1 X90.682 Y84.685 E0.21924
G1 X90.937 Y83.323 E0.13045
G1 X91.336 Y83.353 E0.03764
G1 X98.000 Y87.914 E0.76008
G1 X100.461 Y86.949 E0.24885
G1 X93.871 Y81.743 E0.79060
G1 X93.378 Y79.729 E0.19509
G1 X95.497 Y79.887 E0.19996
G1 X105.952 Y89.846 E1.35917
G1 X106.200 Y89.664 E0.02897
G1 X110.066 Y93.006 E0.48101
G1 X111.410 Y91.799 E0.17005
G1 X101.086 Y76.904 E1.70589
G1 X101.717 Y75.467 E0.14781
G1 X100.802 Y74.014 E0.16161
G1 X100.893 Y73.806 E0.02137
G1 X102.644 Y70.821 E0.32580
G1 X102.946 Y70.670 E0.03175
G1 X106.988 Y71.079 E0.38239
G1 X108.689 Y69.998 E0.18971
G1 X108.924 Y70.010 E0.02221
G1 X111.187 Y68.394 E0.26175
G1 X110.778 Y66.421 E0.18958
G1 X110.872 Y66.329 E0.01234
G1 X112.721 Y65.255 E0.20133
G1 X114.056 Y65.145 E0.12608
G1 X114.649 Y64.216 E0.10374
G1 X115.873 Y65.759 E0.18539
G1 X115.913 Y66.317 E0.05269
G1 X116.238 Y69.054 E0.25940
G1 X117.768 Y69.269 E0.14539
G1 X117.768 Y121.194 E4.88765
G1 X115.893 Y122.142 E0.19776
G1 X113.908 Y122.410 E0.18847
G1 E-1.00000 F1800.00000
G1 X117.405 Y124.838 F7800.000
G1 E1.00000 F1800.00000
G1 X117.768 Y124.850 E0.03413 F840.000
G1 X117.768 Y132.477 E0.71786
G1 X117.509 Y132.561 E0.02561
G1 X116.938 Y131.779 E0.09113
G1 X117.401 Y124.898 E0.64917
G1 X116.949 Y122.308 F7800.000
G1 X116.081 Y122.747 E0.09161 F588.000
G1 X114.356 Y122.980 E0.16377
G1 X111.634 Y134.287 E1.09477
G1 X111.542 Y134.345 E0.01020
G1 X111.346 Y135.116 E0.07494
G1 X108.668 Y136.296 E0.27547
G1 X108.035 Y136.272 E0.05958
G1 X107.163 Y135.511 E0.10900
G1 X105.003 Y136.775 E0.23559
G1 X103.946 Y133.257 E0.34574
G1 X106.100 Y128.441 E0.49662
G1 X107.560 Y125.234 E0.33167
G1 X106.056 Y125.328 E0.14185
G1 X105.810 Y125.276 E0.02370
G1 X105.672 Y125.172 E0.01622
G1 X105.274 Y124.558 E0.06881
G1 X103.854 Y121.525 E0.31531
G1 X99.834 Y126.531 E0.60437
G1 X96.918 Y126.602 E0.27457
G1 X95.716 Y126.501 E0.11354
G1 X95.531 Y125.363 E0.10851
G1 X95.386 Y122.402 E0.27911
G1 X102.066 Y116.171 E0.85984
G1 X100.704 Y115.856 E0.13162
G1 X100.144 Y116.279 E0.06607
G1 X100.046 Y116.274 E0.00921
G1 X90.075 Y123.466 E1.15726
G1 X85.880 Y122.244 E0.41132
G1 X85.736 Y122.169 E0.01531
G1 X85.731 Y122.018 E0.01418
G1 X86.541 Y117.472 E0.43469
G1 X86.110 Y117.355 E0.04201
G1 X85.868 Y116.851 E0.05259
G1 X86.801 Y114.792 E0.21281
G1 X91.768 Y112.634 E0.50982
G1 X91.462 Y111.459 E0.11429
G1 X91.798 Y110.010 E0.14002
G1 X84.933 Y111.878 E0.66963
G1 X84.431 Y111.529 E0.05756
G1 X83.791 Y107.596 E0.37507
G1 X83.878 Y107.447 E0.01623
G1 X93.303 Y105.660 E0.90299
G1 X93.297 Y105.454 E0.01944
G1 X95.015 Y104.484 E0.18569
G1 X94.836 Y103.875 E0.05976
G1 X92.905 Y103.984 E0.18211
G1 X92.325 Y103.212 E0.09081
G1 X92.180 Y102.122 E0.10357
G1 X87.377 Y102.011 E0.45223
G1 X87.253 Y101.845 E0.01947
G1 X86.956 Y100.514 E0.12839
G1 X85.565 Y100.451 E0.13111
G1 X83.290 Y98.997 E0.25413
G1 X85.961 Y96.420 E0.34930
G1 X88.442 Y96.729 E0.23535
G1 X87.493 Y94.803 E0.20207
G1 X87.496 Y94.463 E0.03203
G1 X87.796 Y94.067 E0.04677
G1 X89.690 Y92.826 E0.21315
G1 X85.963 Y91.619 E0.36880
G1 X84.936 Y90.097 E0.17281
G1 X85.390 Y88.921 E0.11861
G1 X87.117 Y88.431 E0.16904
G1 X91.734 Y90.291 E0.46849
G1 X91.858 Y88.407 E0.17770
G1 X87.102 Y85.987 E0.50230
G1 X86.096 Y84.109 E0.20047
G1 X87.181 Y82.925 E0.15120
G1 X88.859 Y82.828 E0.15825
G1 X90.235 Y83.676 E0.15214
G1 X90.426 Y82.657 E0.09760
G1 X91.551 Y82.743 E0.10616
G1 X98.080 Y87.211 E0.74470
G1 X99.220 Y86.765 E0.11524
G1 X93.315 Y82.100 E0.70834
G1 X92.772 Y79.878 E0.21529
G1 X92.747 Y79.177 E0.06607
G1 X93.171 Y79.087 E0.04080
G1 X95.766 Y79.280 E0.24497
G1 X106.005 Y89.033 E1.33102
G1 X106.233 Y88.866 E0.02661
G1 X110.058 Y92.174 E0.47599
G1 X110.582 Y91.702 E0.06636
G1 X100.373 Y76.973 E1.68694
G1 X101.012 Y75.519 E0.14949
G1 X100.097 Y74.067 E0.16150
G1 X100.335 Y73.522 E0.05601
G1 X102.199 Y70.344 E0.34682
G1 X102.829 Y70.030 E0.06624
G1 X104.043 Y70.153 E0.11479
G1 X103.427 Y68.805 E0.13949
G1 X103.459 Y67.140 E0.15674
G1 X104.748 Y68.227 E0.15866
G1 X105.641 Y70.315 E0.21380
G1 X106.835 Y70.436 E0.11298
G1 X108.522 Y69.363 E0.18815
G1 X108.739 Y69.375 E0.02044
G1 X110.493 Y68.122 E0.20285
G1 X110.097 Y66.216 E0.18324
G1 X110.489 Y65.829 E0.05180
G1 X112.529 Y64.644 E0.22210
G1 X113.696 Y64.548 E0.11017
G1 X114.593 Y63.141 E0.15707
G1 X116.254 Y65.233 E0.25141
G1 X116.420 Y65.288 E0.01647
G1 X116.441 Y65.469 E0.01720
G1 X116.483 Y65.522 E0.00629
G1 X116.535 Y66.258 E0.06950
G1 X116.802 Y68.502 E0.21272
G1 X117.990 Y68.670 E0.11296
G1 X118.392 Y69.070 E0.05344
G1 X118.392 Y133.453 E6.06027
G1 X117.370 Y133.431 E0.09626
G1 X116.299 Y131.964 E0.17096
G1 X116.945 Y122.368 E0.90528
G1 X116.835 Y121.925 F7800.000
G1 X117.696 Y121.581 F7800.000
G1 X117.597 Y124.532 E0.58936 F480.000
G1 E-1.00000 F1800.00000
G1 X108.933 Y124.537 F7800.000
G1 E1.00000 F1800.00000
G1 X112.193 Y127.797 E0.43839 F1080.000
G1 X112.366 Y127.077 E0.07037
G1 X102.423 Y117.135 E1.33706
G1 X101.961 Y117.566 E0.06006
G1 X104.099 Y119.703 E0.28744
G1 X103.701 Y120.198 E0.06038
G1 X101.499 Y117.996 E0.29609
G1 X102.885 Y116.704 F7800.000
G1 X112.539 Y126.358 E1.29824 F1080.000
G1 X112.712 Y125.638 E0.07037
G1 X103.347 Y116.273 E1.25943
G1 X103.809 Y115.842 F7800.000
G1 X112.886 Y124.919 E1.22062 F1080.000
G1 X113.059 Y124.199 E0.07037
G1 X94.648 Y105.788 E2.47585
G1 X95.218 Y105.466 E0.06231
G1 X113.232 Y123.480 E2.42241
G1 X113.405 Y122.760 E0.07037
G1 X95.789 Y105.144 E2.36897
G1 X96.139 Y104.602 F7800.000
G1 X113.621 Y122.084 E2.35092 F1080.000
G1 X114.408 Y121.977 E0.07547
G1 X95.769 Y103.339 E2.50646
G1 X95.282 Y102.852 F7800.000
G1 X90.107 Y97.677 E0.69593 F1080.000
G1 X89.417 Y97.880 F7800.000
G1 X92.664 Y101.126 E0.43655 F1080.000
G1 X93.142 Y101.604 F7800.000
G1 X94.437 Y102.899 E0.17417 F1080.000
G1 X93.592 Y102.947 E0.08049
G1 X93.279 Y102.634 E0.04207
G1 X88.397 Y97.753 F7800.000
G1 X91.750 Y101.105 E0.45081 F1080.000
G1 X90.836 Y101.084 E0.08692
G1 X87.378 Y97.625 E0.46507
G1 X86.358 Y97.498 E0.09773
G1 X89.922 Y101.063 E0.47933
G1 X89.008 Y101.042 E0.08692
G1 X85.830 Y97.864 E0.42735
G1 X85.376 Y98.302 E0.06004
G1 X86.559 Y99.485 E0.15911
G1 X89.241 Y95.918 F7800.000
G1 X115.194 Y121.871 E3.49008 F1080.000
G1 X115.954 Y121.738 E0.07333
G1 X88.778 Y94.562 E3.65448
G1 X89.318 Y94.209 E0.06132
G1 X116.547 Y121.438 E3.66168
G1 X117.140 Y121.138 E0.06318
G1 X89.857 Y93.856 E3.66889
G1 X90.397 Y93.502 E0.06132
G1 X117.389 Y120.495 E3.62985
G1 X117.389 Y119.602 E0.08489
G1 X90.936 Y93.149 E3.55732
G1 X91.475 Y92.796 E0.06132
G1 X117.389 Y118.709 E3.48479
G1 X117.389 Y117.817 E0.08489
G1 X92.015 Y92.442 E3.41225
G1 X92.014 Y91.549 E0.08496
G1 X117.389 Y116.924 E3.41235
G1 X117.389 Y116.031 E0.08489
G1 X92.665 Y91.307 E3.32486
G1 X92.720 Y90.469 E0.07983
G1 X117.389 Y115.138 E3.31746
G1 X117.389 Y114.246 E0.08489
G1 X92.774 Y89.631 E3.31007
G1 X92.829 Y88.793 E0.07983
G1 X117.389 Y113.353 E3.30268
G1 X117.389 Y112.460 E0.08489
G1 X92.884 Y87.956 E3.29529
G1 X92.404 Y87.475 F7800.000
G1 X89.330 Y84.402 E0.41334 F1080.000
G1 X88.768 Y85.625 F7800.000
G1 X87.404 Y84.261 E0.18343 F1080.000
G1 X87.916 Y83.880 E0.06067
G1 X90.586 Y86.550 E0.35906
G1 X91.976 Y84.369 F7800.000
G1 X117.389 Y109.782 E3.41745 F1080.000
G1 X117.389 Y110.675 E0.08489
G1 X91.101 Y84.386 E3.53517
G1 X90.960 Y85.138 E0.07274
G1 X117.389 Y111.567 E3.55412
G1 X117.389 Y108.889 F7800.000
G1 X94.804 Y86.305 E3.03710 F1080.000
G1 X97.633 Y88.240 F7800.000
G1 X117.389 Y107.996 E2.65674 F1080.000
G1 X117.389 Y107.104 E0.08489
G1 X98.405 Y88.120 E2.55291
G1 X99.046 Y87.868 E0.06551
G1 X117.389 Y106.211 E2.46666
G1 X117.389 Y105.318 E0.08489
G1 X99.688 Y87.617 E2.38041
G1 X100.329 Y87.366 E0.06551
G1 X117.389 Y104.425 E2.29416
G1 X117.389 Y103.533 E0.08489
G1 X100.970 Y87.114 E2.20790
G1 X99.131 Y85.275 F7800.000
G1 X94.023 Y80.167 E0.68689 F1080.000
G1 X94.988 Y80.239 E0.09195
G1 X117.389 Y102.640 E3.01243
G1 X111.900 Y91.794 F7800.000
G1 X117.389 Y97.283 E0.73817 F1080.000
G1 X117.389 Y98.176 E0.08489
G1 X111.430 Y92.217 E0.80140
G1 X110.959 Y92.639 E0.06011
G1 X117.389 Y99.069 E0.86464
G1 X117.389 Y99.962 E0.08489
G1 X110.489 Y93.062 E0.92787
G1 X110.019 Y93.484 E0.06011
G1 X117.389 Y100.854 E0.99111
G1 X117.389 Y101.747 E0.08489
G1 X105.917 Y90.275 E1.54270
G1 E-1.00000 F1800.00000
G1 X110.170 Y89.172 F7800.000
G1 E1.00000 F1800.00000
G1 X117.389 Y96.391 E0.97079 F1080.000
G1 X117.389 Y95.498 E0.08489
G1 X108.153 Y86.262 E1.24196
G1 X106.137 Y83.353 F7800.000
G1 X117.389 Y94.605 E1.51314 F1080.000
G1 X117.389 Y93.713 E0.08489
G1 X104.120 Y80.444 E1.78431
G1 X102.104 Y77.535 F7800.000
G1 X117.389 Y92.820 E2.05548 F1080.000
G1 X117.389 Y91.927 E0.08489
G1 X101.732 Y76.270 E2.10552
G1 X102.004 Y75.650 E0.06442
G1 X117.389 Y91.034 E2.06888
G1 X117.389 Y90.142 E0.08489
G1 X101.520 Y74.273 E2.13401
G1 X101.523 Y73.383 E0.08459
G1 X117.389 Y89.249 E2.13359
G1 X117.389 Y88.356 E0.08489
G1 X101.853 Y72.820 E2.08919
G1 X102.183 Y72.258 E0.06203
G1 X117.389 Y87.463 E2.04480
G1 X117.389 Y86.571 E0.08489
G1 X102.513 Y71.695 E2.00040
G1 X102.844 Y71.133 E0.06203
G1 X117.389 Y85.678 E1.95601
G1 X117.389 Y84.785 E0.08489
G1 X103.750 Y71.146 E1.83412
G1 X104.199 Y71.595 E0.06039
G1 X104.743 Y71.247 E0.06145
G1 X117.389 Y83.892 E1.70056
G1 X117.389 Y83.000 E0.08489
G1 X105.736 Y71.347 E1.56701
G1 X106.730 Y71.447 E0.09492
G1 X117.389 Y82.107 E1.43345
G1 X117.389 Y81.214 E0.08489
G1 X107.388 Y71.213 E1.34486
G1 X107.934 Y70.866 E0.06150
G1 X117.389 Y80.321 E1.27147
G1 X117.389 Y79.429 E0.08489
G1 X108.480 Y70.519 E1.19808
G1 X109.123 Y70.270 E0.06558
G1 X117.389 Y78.536 E1.11163
G1 X117.389 Y77.643 E0.08489
G1 X109.643 Y69.898 E1.04161
G1 X110.164 Y69.525 E0.06085
G1 X117.389 Y76.750 E0.97159
G1 X117.389 Y75.858 E0.08489
G1 X110.685 Y69.153 E0.90157
G1 X111.205 Y68.781 E0.06085
G1 X117.389 Y74.965 E0.83154
G1 X117.389 Y74.072 E0.08489
G1 X111.576 Y68.259 E0.78168
G1 X111.343 Y67.133 E0.10936
G1 X117.389 Y73.179 E0.81307
G1 X117.389 Y72.287 E0.08489
G1 X111.467 Y66.365 E0.79634
G1 X112.032 Y66.037 E0.06210
G1 X117.389 Y71.394 E0.72039
G1 X117.389 Y70.501 E0.08489
G1 X116.361 Y69.473 E0.13824
G1 X115.826 Y68.939 F7800.000
G1 X112.597 Y65.709 E0.43433 F1080.000
G1 X113.353 Y65.573 E0.07308
G1 X115.706 Y67.926 E0.31642
G1 X115.586 Y66.912 E0.09703
G1 X114.178 Y65.505 E0.18929
G1 X114.549 Y64.983 E0.06088
G1 X114.952 Y65.386 E0.05426
G1 E-1.00000 F1800.00000
G1 X94.880 Y81.917 F7800.000
G1 E1.00000 F1800.00000
G1 X94.164 Y81.201 E0.09626 F1080.000
G1 E-1.00000 F1800.00000
G1 X90.519 Y90.947 F7800.000
G1 E1.00000 F1800.00000
G1 X92.063 Y92.491 E0.20759 F1080.000
G1 X90.742 Y92.063 E0.13201
G1 X89.024 Y90.345 E0.23100
G1 X88.101 Y91.207 F7800.000
G1 X86.509 Y89.615 E0.21411 F1080.000
G1 X87.530 Y89.743 E0.09785
G1 X89.422 Y91.635 E0.25441
G1 E-1.00000 F1800.00000
G1 X85.174 Y109.706 F7800.000
G1 E1.00000 F1800.00000
G1 X86.037 Y110.569 E0.11603 F1080.000
G1 X86.739 Y110.378 E0.06916
G1 X85.000 Y108.639 E0.23376
G1 X85.409 Y108.156 E0.06024
G1 X87.441 Y110.187 E0.27315
G1 X88.142 Y109.996 E0.06916
G1 X86.160 Y108.013 E0.26661
G1 X86.910 Y107.871 E0.07263
G1 X88.844 Y109.805 E0.26007
G1 X89.546 Y109.614 E0.06916
G1 X87.661 Y107.729 E0.25353
G1 X88.411 Y107.586 E0.07263
G1 X90.248 Y109.423 E0.24699
G1 X90.950 Y109.232 E0.06916
G1 X89.162 Y107.444 E0.24044
G1 X89.912 Y107.302 E0.07263
G1 X91.651 Y109.041 E0.23390
G1 X92.353 Y108.850 E0.06916
G1 X90.663 Y107.160 E0.22736
G1 X91.413 Y107.017 E0.07263
G1 X99.727 Y115.331 E1.11805
G1 X100.276 Y114.987 E0.06159
G1 X92.163 Y106.875 E1.09094
G1 X92.914 Y106.733 E0.07263
G1 X101.054 Y114.872 E1.09460
G1 X102.215 Y115.141 E0.11334
G1 X93.664 Y106.590 E1.14985
G1 X94.332 Y106.365 E0.06699
G1 X103.376 Y115.409 E1.21625
G1 X99.208 Y115.705 F7800.000
G1 X92.935 Y109.432 E0.84369 F1080.000
G1 X92.767 Y110.156 E0.07075
G1 X98.690 Y116.080 E0.79652
G1 X98.171 Y116.454 E0.06081
G1 X92.599 Y110.881 E0.74935
G1 X92.628 Y111.803 E0.08768
G1 X97.653 Y116.828 E0.67572
G1 X97.134 Y117.202 E0.06081
G1 X92.942 Y113.010 E0.56367
G1 X92.433 Y113.394 E0.06062
G1 X96.615 Y117.576 E0.56240
G1 X96.097 Y117.950 E0.06081
G1 X91.811 Y113.664 E0.57636
G1 X91.188 Y113.935 E0.06453
G1 X95.578 Y118.324 E0.59032
G1 X95.059 Y118.698 E0.06081
G1 X90.566 Y114.205 E0.60427
G1 X89.943 Y114.475 E0.06453
G1 X94.541 Y119.072 E0.61823
G1 X94.022 Y119.447 E0.06081
G1 X89.321 Y114.745 E0.63218
